(Generated By: Line Grinder Version: 01.04)
(Home Page: http://www.OfItselfSo.com/LineGrinder/LineGrinder.php)
(Generated from file: C:\Users\Huwok\Google Drive\IDP - Dispositif Lumineux\PCB\IDP\IDP - CADCAM Top Copper.TXT)
(Date Generated: Friday, 18 April 2014 23:25)

(The Line Grinder software is released under the MIT License. There)
(is no warranty or guarantee that the GCode files it produces)
(are without error. You use it, and run its output code entirely)
(at your own risk. In particular: )

(THE LINE GRINDER SOFTWARE, AND THE OUTPUT CODE IT GENERATES, ARE )
(PROVIDED "AS IS", WITHOUT WARRANTY OF ANY KIND, EXPRESS OR )
(IMPLIED, INCLUDING BUT NOT LIMITED TO THE WARRANTIES OF )
(MERCHANTABILITY, FITNESS FOR A PARTICULAR PURPOSE AND )
(NONINFRINGEMENT. IN NO EVENT SHALL THE AUTHORS OR COPYRIGHT )
(HOLDERS BE LIABLE FOR ANY CLAIM, DAMAGES OR OTHER LIABILITY, )
(WHETHER IN AN ACTION OF CONTRACT, TORT OR OTHERWISE, ARISING )
(FROM, OUT OF OR IN CONNECTION WITH THE SOFTWARE OR ITS OUTPUT)
(OR FROM THE USE OR OTHER DEALINGS IN THE SOFTWARE. )

G20 (Use Inches)
G90 (Set Absolute Coordinates)
G17 (XY plane selection)
G00 Z0.25
G00 X0 Y0
M03 (Start spindle)
G04 P1 (Pause to let the spindle start)
G00 X3.665 Y0.69
G01 Z-0.01 F1
G01 X3.792 Y0.69 F4

G03 X3.9004 Y0.732 I0.046 J0.0422
G01 X3.901 Y0.732

G03 X3.7919 Y0.7751 I-0.063 J0.0002
G01 X3.792 Y0.775
G01 X3.665 Y0.775
G01 X3.665 Y0.785
G01 X3.62 Y0.785
G01 X3.62 Y0.769

G03 X3.6202 Y0.6963 I0.0226 J-0.0363
G01 X3.62 Y0.696
G01 X3.62 Y0.68
G01 X3.665 Y0.68
G01 X3.665 Y0.69
G01 Z0.2 F1
G00 X3.352 Y0.69
G01 Z-0.01
G01 X3.497 Y0.69 F4
G01 X3.497 Y0.68
G01 X3.542 Y0.68
G01 X3.542 Y0.697

G03 X3.5614 Y0.733 I-0.023 J0.0357
G01 X3.561 Y0.733

G03 X3.5414 Y0.7682 I-0.042 J-0.0003
G01 X3.542 Y0.769
G01 X3.542 Y0.785
G01 X3.497 Y0.785
G01 X3.497 Y0.775
G01 X3.352 Y0.775
G01 X3.352 Y0.777
G01 X3.295 Y0.777
G01 X3.148 Y0.924

G03 X3.133 Y0.93 I-0.0152 J-0.0161
G01 X2.817 Y0.93
G01 X2.505 Y1.242
G01 X2.505 Y1.523
G01 X2.643 Y1.66
G01 X2.693 Y1.66
G01 X2.717 Y1.635
G01 X2.717 Y1.63
G01 X2.698 Y1.63

G03 X2.6931 Y1.6295 I-0.0003 J-0.022
G01 X2.693 Y1.63
G01 X2.684 Y1.628

G03 X2.6923 Y1.5837 I-0.0111 J-0.025
G01 X2.692 Y1.584
G01 X2.699 Y1.585
G01 X2.74 Y1.585
G01 X2.74 Y1.586

G03 X2.7489 Y1.5881 I-0.0004 J0.022
G01 X2.749 Y1.588
G01 X2.76 Y1.588
G01 X2.76 Y1.599

G03 X2.7619 Y1.608 I-0.0204 J0.009
G01 X2.762 Y1.608
G01 X2.762 Y1.608
G01 X2.762 Y1.645
G01 X2.762 Y1.645

G03 X2.7553 Y1.6613 I-0.0224 J0.0004
G01 X2.755 Y1.661
G01 X2.718 Y1.698

G03 X2.702 Y1.7047 I-0.0158 J-0.0153
G01 X2.702 Y1.705
G01 X2.633 Y1.705

G03 X2.6169 Y1.6981 I0 J-0.0223
G01 X2.617 Y1.698
G01 X2.467 Y1.548

G03 X2.4608 Y1.533 I0.0156 J-0.0152
G01 X2.46 Y1.533
G01 X2.46 Y1.233

G03 X2.4668 Y1.2168 I0.0226 J-0.0001
G01 X2.467 Y1.217
G01 X2.466 Y1.217
G01 X2.792 Y0.892
G01 X2.792 Y0.892

G03 X2.808 Y0.8855 I0.0157 J0.0159
G01 X2.808 Y0.886
G01 X2.808 Y0.885
G01 X3.123 Y0.885
G01 X3.233 Y0.775
G01 X3.233 Y0.775

G03 X3.2031 Y0.7629 I-0.0003 J-0.0423
G01 X3.203 Y0.763
G01 X3.078 Y0.638

G03 X3.0654 Y0.608 I0.0296 J-0.03
G01 X3.065 Y0.608
G01 X3.065 Y0.525
G01 X3.016 Y0.475
G01 X2.355 Y0.475
G01 X2.22 Y0.611

G03 X2.22 Y0.611 I-0.0322 J-0.0282

G03 X2.1556 Y0.6111 I-0.0322 J-0.0055
G01 X2.156 Y0.611

G03 X2.1558 Y0.5548 I0.0318 J-0.0282
G01 X2.156 Y0.555

G03 X2.1831 Y0.5282 I0.0318 J0.0051
G01 X2.183 Y0.528
G01 X2.306 Y0.405

G03 X2.338 Y0.3907 I0.0317 J0.0278
G01 X2.338 Y0.39
G01 X3.033 Y0.39

G03 X3.0652 Y0.4049 I-0.0002 J0.0428
G01 X3.065 Y0.405
G01 X3.135 Y0.476

G03 X3.1494 Y0.508 I-0.0274 J0.0316
G01 X3.15 Y0.508
G01 X3.15 Y0.59
G01 X3.25 Y0.69
G01 X3.264 Y0.69
G01 X3.264 Y0.689
G01 X3.352 Y0.689
G01 X3.352 Y0.69
G01 Z0.2 F1
G00 X3.35 Y0.379
G01 Z-0.01
G01 X3.35 Y0.512 F4
G01 X3.352 Y0.512
G01 X3.352 Y0.599
G01 X3.264 Y0.599
G01 X3.264 Y0.512
G01 X3.266 Y0.512
G01 X3.266 Y0.379
G01 X3.264 Y0.379
G01 X3.264 Y0.291
G01 X3.352 Y0.291
G01 X3.352 Y0.379
G01 X3.35 Y0.379
G01 Z0.2 F1
G00 X2.366 Y1.571
G01 Z-0.01
G01 X2.37 Y1.575 F4
G01 X2.4 Y1.575
G01 X2.4 Y1.585
G01 X2.453 Y1.585
G01 X2.453 Y1.586

G03 X2.465 Y1.591 I-0.0002 J0.017
G01 X2.465 Y1.59
G01 X3.09 Y2.215
G01 X3.333 Y2.215
G01 X3.778 Y2.215

G03 X3.9006 Y2.233 I0.06 J0.0179
G01 X3.901 Y2.233

G03 X3.7774 Y2.2502 I-0.063 J-0.0001
G01 X3.778 Y2.25
G01 X3.333 Y2.25
G01 X3.083 Y2.25

G03 X3.0709 Y2.2452 I-0.0002 J-0.0171
G01 X3.071 Y2.245
G01 X2.446 Y1.62
G01 X2.4 Y1.62
G01 X2.4 Y1.631
G01 X2.345 Y1.631
G01 X2.345 Y1.6
G01 X2.278 Y1.6
G01 X2.278 Y1.603
G01 X2.238 Y1.603
G01 X2.238 Y1.6
G01 X2.153 Y1.6
G01 X2.153 Y1.603
G01 X2.113 Y1.603
G01 X2.113 Y1.563
G01 X2.153 Y1.563
G01 X2.153 Y1.565
G01 X2.238 Y1.565
G01 X2.238 Y1.563
G01 X2.278 Y1.563
G01 X2.278 Y1.565
G01 X2.353 Y1.565
G01 X2.353 Y1.566

G03 X2.3654 Y1.5715 I-0.0001 J0.0168
G01 X2.366 Y1.571
G01 Z0.2 F1
G00 X2.275 Y1.494
G01 Z-0.01
G01 X2.347 Y1.494 F4

G03 X2.3997 Y1.503 I0.0256 J0.009
G01 X2.4 Y1.503

G03 X2.3467 Y1.5121 I-0.0274 J0
G01 X2.347 Y1.512
G01 X2.278 Y1.512
G01 X2.278 Y1.535
G01 X2.238 Y1.535
G01 X2.238 Y1.494
G01 X2.249 Y1.494
G01 X2.249 Y1.428
G01 X2.238 Y1.428
G01 X2.238 Y1.387
G01 X2.278 Y1.387
G01 X2.278 Y1.428
G01 X2.267 Y1.428
G01 X2.267 Y1.494
G01 X2.275 Y1.494
G01 Z0.2 F1
G00 X2.758 Y1.465
G01 Z-0.01
G01 X2.788 Y1.465 F4
G01 X2.788 Y1.463
G01 X2.828 Y1.463
G01 X2.828 Y1.465
G01 X2.913 Y1.465
G01 X2.913 Y1.463
G01 X2.953 Y1.463
G01 X2.953 Y1.465
G01 X3.508 Y1.465
G01 X3.508 Y1.466

G03 X3.5199 Y1.4711 I-0.0001 J0.0168
G01 X3.52 Y1.471
G01 X3.52 Y1.47
G01 X3.665 Y1.615
G01 X3.778 Y1.615

G03 X3.9005 Y1.633 I0.06 J0.0177
G01 X3.901 Y1.633

G03 X3.7775 Y1.6502 I-0.063 J-0.0003
G01 X3.778 Y1.65
G01 X3.658 Y1.65

G03 X3.6458 Y1.6452 I-0.0002 J-0.0173
G01 X3.646 Y1.645
G01 X3.501 Y1.5
G01 X2.953 Y1.5
G01 X2.953 Y1.503
G01 X2.913 Y1.503
G01 X2.913 Y1.5
G01 X2.828 Y1.5
G01 X2.828 Y1.503
G01 X2.788 Y1.503
G01 X2.788 Y1.5
G01 X2.765 Y1.5
G01 X2.75 Y1.515

G03 X2.738 Y1.52 I-0.012 J-0.012
G01 X2.694 Y1.52

G03 X2.6935 Y1.4854 I-0.0211 J-0.017
G01 X2.694 Y1.485
G01 X2.731 Y1.485
G01 X2.745 Y1.471
G01 Z0.2 F1
G00 X2.758 Y1.465
G01 Z-0.01
G01 X2.758 Y1.466 F4

G02 X2.7454 Y1.4714 I-0.0003 J0.0168
G01 X2.745 Y1.471
G01 Z0.2 F1
G00 X2.7 Y1.406
G01 Z-0.01
G01 X2.788 Y1.406 F4
G01 X2.788 Y1.394
G01 X2.799 Y1.394
G01 X2.799 Y1.328
G01 X2.788 Y1.328
G01 X2.788 Y1.287
G01 X2.828 Y1.287
G01 X2.828 Y1.328
G01 X2.816 Y1.328
G01 X2.816 Y1.394
G01 X2.828 Y1.394
G01 X2.828 Y1.435
G01 X2.788 Y1.435
G01 X2.788 Y1.423
G01 X2.698 Y1.423

G03 X2.6939 Y1.4221 I-0.0003 J-0.0083
G01 X2.694 Y1.422
G01 X2.693 Y1.422
G01 Z0.2 F1
G00 X1.94 Y1.388
G01 Z-0.01
G01 X1.94 Y2.43 F4

G03 X1.9603 Y2.46 I-0.0122 J0.0301
G01 X1.96 Y2.46
G01 X1.961 Y2.46
G01 X1.961 Y2.506
G01 X1.96 Y2.506

G03 X1.8956 Y2.506 I-0.0322 J-0.0005
G01 X1.896 Y2.506
G01 X1.896 Y2.46

G03 X1.9154 Y2.4308 I0.0318 J0.0001
G01 X1.915 Y2.43
G01 X1.915 Y1.383

G03 X1.9188 Y1.3738 I0.0128 J-0.0001
G01 X1.919 Y1.374
G01 X2.019 Y1.274
G01 Z0.2 F1
G00 X1.94 Y1.388
G01 Z-0.01
G01 X2.033 Y1.296 F4
G01 X2.275 Y1.296
G01 X2.295 Y1.316
G01 X2.295 Y1.338

G02 X2.2988 Y1.3472 I0.013 J-0.0001
G01 X2.299 Y1.347
G01 Z0.2 F1
G00 X2.028 Y1.27
G01 Z-0.01
G01 X2.28 Y1.27 F4

G03 X2.2893 Y1.2737 I0.0002 J0.0129
G01 X2.289 Y1.274
G01 X2.317 Y1.301
G01 Z0.2 F1
G00 X2.321 Y1.31
G01 Z-0.01
G01 X2.321 Y1.332 F4
G01 X2.364 Y1.376

G03 X2.4005 Y1.403 I0.0086 J0.0266
G01 X2.4 Y1.403

G03 X2.3465 Y1.3941 I-0.0274 J-0.0004
G01 X2.346 Y1.394
G01 X2.299 Y1.347
G01 Z0.2 F1
G00 X2.495 Y2.537
G01 Z-0.01
G01 X2.495 Y2.67 F4
G01 X2.503 Y2.67
G01 X2.503 Y2.71
G01 X2.463 Y2.71
G01 X2.463 Y2.67
G01 X2.47 Y2.67
G01 X2.47 Y2.533

G03 X2.455 Y2.506 I0.0177 J-0.0275
G01 X2.455 Y2.46

G03 X2.5204 Y2.46 I0.0327 J0.0001
G01 X2.52 Y2.46
G01 X2.52 Y2.46
G01 X2.52 Y2.506
G01 X2.52 Y2.506

G03 X2.495 Y2.537 I-0.0323 J-0.0005
G01 Z0.2 F1
G00 X2.491 Y2.778
G01 Z-0.01
G01 X2.491 Y2.812 F4
G01 X2.503 Y2.812
G01 X2.503 Y2.853
G01 X2.463 Y2.853
G01 X2.463 Y2.812
G01 X2.474 Y2.812
G01 X2.474 Y2.778
G01 X2.463 Y2.778
G01 X2.463 Y2.738
G01 X2.503 Y2.738
G01 X2.503 Y2.778
G01 X2.491 Y2.778
G01 Z0.2 F1
G00 X2.191 Y2.771
G01 Z-0.01
G01 X2.191 Y2.812 F4
G01 X2.203 Y2.812
G01 X2.203 Y2.853
G01 X2.163 Y2.853
G01 X2.163 Y2.812
G01 X2.174 Y2.812
G01 X2.174 Y2.771
G01 X2.163 Y2.771
G01 X2.163 Y2.731
G01 X2.203 Y2.731
G01 X2.203 Y2.771
G01 X2.191 Y2.771
G01 Z0.2 F1
G00 X2.195 Y2.537
G01 Z-0.01
G01 X2.195 Y2.663 F4
G01 X2.203 Y2.663
G01 X2.203 Y2.703
G01 X2.163 Y2.703
G01 X2.163 Y2.663
G01 X2.17 Y2.663
G01 X2.17 Y2.533

G03 X2.1551 Y2.5061 I0.0178 J-0.0275
G01 X2.156 Y2.506
G01 X2.156 Y2.46

G03 X2.2196 Y2.46 I0.0318 J0.0001
G01 X2.22 Y2.46
G01 X2.221 Y2.46
G01 X2.221 Y2.506
G01 X2.22 Y2.506

G03 X2.195 Y2.5369 I-0.0322 J-0.0005
G01 X2.195 Y2.537
G01 Z0.2 F1
G00 X3.333 Y2.215
G01 Z-0.01
G01 X3.333 Y2.216 F4
G01 Z0.2 F1
G00 X2.4 Y2.063
G01 Z-0.01
G01 X2.4 Y2.43 F4

G03 X2.4202 Y2.46 I-0.0123 J0.0301
G01 X2.42 Y2.46
G01 X2.421 Y2.46
G01 X2.421 Y2.506
G01 X2.42 Y2.506

G03 X2.3554 Y2.506 I-0.0323 J-0.0005
G01 X2.355 Y2.506
G01 X2.355 Y2.46

G03 X2.375 Y2.43 I0.0327 J0.0001
G01 X2.375 Y2.058

G03 X2.3788 Y2.0488 I0.0127 J-0.0002
G01 X2.379 Y2.049
G01 X2.532 Y1.896

G03 X2.5849 Y1.888 I0.0258 J-0.0083
G01 X2.585 Y1.888

G03 X2.5501 Y1.9137 I-0.0272 J-0.0003
G01 X2.55 Y1.914
G01 X2.4 Y2.063
G01 Z0.2 F1
G00 X2.582 Y1.29
G01 Z-0.01
G01 X2.649 Y1.29 F4

G03 X2.6999 Y1.303 I0.0239 J0.0126
G01 X2.7 Y1.303

G03 X2.6489 Y1.3151 I-0.0271 J-0.0004
G01 X2.649 Y1.315
G01 X2.582 Y1.315

G03 X2.582 Y1.2901 I-0.0242 J-0.0124
G01 X2.582 Y1.29
G01 Z0.2 F1
G00 X0.029 Y0.04
G01 Z-0.01
G01 X0.029 Y3.11 F4

G02 X0.037 Y3.1182 I0.0079 J0.0003
G01 X0.037 Y3.118
G01 X4.171 Y3.118

G02 X4.1784 Y3.11 I-0.0003 J-0.0077
G01 X4.178 Y3.11
G01 X4.178 Y0.04

G02 X4.1709 Y0.0323 I-0.0073 J-0.0004
G01 X4.171 Y0.032
G01 X0.037 Y0.032

G02 X0.0293 Y0.04 I-0.0001 J0.0076
G01 X0.029 Y0.04
G01 Z0.2 F1
G00 X2.538 Y2.635
G01 Z-0.01
G01 X2.538 Y2.838 F4
G01 X2.538 Y2.893
G01 X2.503 Y2.893
G01 X2.503 Y2.881
G01 X2.463 Y2.881
G01 X2.463 Y2.893
G01 X2.428 Y2.893
G01 X2.428 Y2.635

G02 X2.4354 Y2.627 I-0.0004 J-0.0078
G01 X2.435 Y2.627
G01 X2.435 Y2.578

G02 X2.428 Y2.5703 I-0.0074 J-0.0003
G01 X2.428 Y2.57
G01 X2.238 Y2.57

G02 X2.2301 Y2.578 I-0.0002 J0.0077
G01 X2.23 Y2.578
G01 X2.23 Y2.62

G02 X2.238 Y2.6279 I0.0078 J0.0001
G01 X2.238 Y2.628
G01 X2.238 Y2.893
G01 X2.203 Y2.893
G01 X2.203 Y2.881
G01 X2.163 Y2.881
G01 X2.163 Y2.893
G01 X2.128 Y2.893
G01 X2.128 Y2.628

G02 X2.1357 Y2.62 I-0.0003 J-0.0079
G01 X2.135 Y2.62
G01 X2.135 Y2.578

G02 X2.128 Y2.5704 I-0.0073 J-0.0003
G01 X2.128 Y2.57
G01 X2.12 Y2.57
G01 X2.12 Y2.395
G01 X2.333 Y2.395

G02 X2.3398 Y2.388 I-0.0003 J-0.0071
G01 X2.34 Y2.388
G01 X2.34 Y2.039
G01 X2.493 Y1.886
G01 Z0.2 F1
G00 X2.53 Y2.578
G01 Z-0.01
G01 X2.53 Y2.627 F4

G02 X2.538 Y2.6348 I0.0076 J0.0002
G01 X2.538 Y2.635
G01 Z0.2 F1
G00 X2.538 Y2.57
G01 Z-0.01
G01 X2.955 Y2.57 F4
G01 X2.955 Y2.395
G01 X2.443 Y2.395

G03 X2.4356 Y2.388 I-0.0003 J-0.0071
G01 X2.435 Y2.388
G01 X2.435 Y2.08

G03 X2.4372 Y2.0751 I0.0077 J0.0005
G01 X2.437 Y2.075
G01 X2.56 Y1.952
G01 Z0.2 F1
G00 X2.565 Y1.95
G01 Z-0.01
G01 X2.583 Y1.95 F4
G01 X2.62 Y1.913
G01 X2.62 Y1.863

G03 X2.6342 Y1.8579 I0.008 J-0.0001
G01 X2.634 Y1.858
G01 Z0.2 F1
G00 X2.634 Y1.857
G01 Z-0.01
G01 X3.062 Y2.285 F4
G01 X3.749 Y2.285

G03 X3.7553 Y2.2878 I0.0001 J0.008
G01 X3.755 Y2.288
G01 Z0.2 F1
G00 X3.755 Y2.287
G01 Z-0.01
G01 X3.798 Y2.33 F4
G01 X3.878 Y2.33
G01 X3.935 Y2.273
G01 X3.935 Y2.193
G01 X3.906 Y2.164
G01 Z0.2 F1
G00 X3.906 Y2.153
G01 Z-0.01
G01 X3.935 Y2.123 F4
G01 X3.935 Y2.091
G01 X3.9 Y2.091

G03 X3.776 Y2.091 I-0.062 J-0.008
G01 X3.741 Y2.091
G01 X3.741 Y2.123
G01 X3.77 Y2.153
G01 Z0.2 F1
G00 X3.935 Y2.043
G01 Z-0.01
G01 X3.935 Y2.075 F4
G01 X3.9 Y2.075

G02 X3.846 Y2.021 I-0.062 J0.008
G01 X3.846 Y1.986
G01 X3.878 Y1.986
G01 X3.935 Y2.043
G01 Z0.2 F1
G00 X3.798 Y1.986
G01 Z-0.01
G01 X3.83 Y1.986 F4
G01 X3.83 Y2.021

G02 X3.776 Y2.075 I0.008 J0.062
G01 X3.741 Y2.075
G01 X3.741 Y2.043
G01 X3.798 Y1.986
G01 Z0.2 F1
G00 X3.754 Y2.178
G01 Z-0.01
G01 X3.769 Y2.164 F4

G02 X3.7718 Y2.158 I-0.0047 J-0.0058
G01 X3.772 Y2.158

G02 X3.77 Y2.153 I-0.0077 J0.0002
G01 Z0.2 F1
G00 X3.108 Y2.18
G01 Z-0.01
G01 X3.749 Y2.18 F4

G02 X3.7541 Y2.178 I0.0001 J-0.0071
G01 X3.754 Y2.178
G01 Z0.2 F1
G00 X2.677 Y1.753
G01 Z-0.01
G01 X3.102 Y2.178 F4
G01 Z0.2 F1
G00 X2.683 Y1.74
G01 Z-0.01
G01 X2.725 Y1.74 F4
G01 X2.798 Y1.668

G03 X2.8004 Y1.6645 I0.0067 J0.0021
G01 X2.8 Y1.664
G01 X2.8 Y1.628
G01 X2.788 Y1.628
G01 X2.788 Y1.588
G01 X2.8 Y1.588
G01 X2.8 Y1.553
G01 X2.78 Y1.553

G03 X2.7728 Y1.545 I0.0004 J-0.0076
G01 X2.773 Y1.545
G01 Z0.2 F1
G00 X2.815 Y1.663
G01 Z-0.01
G01 X2.863 Y1.663 F4
G01 X2.863 Y1.616
G01 X2.828 Y1.616
G01 X2.828 Y1.628
G01 X2.815 Y1.628
G01 X2.815 Y1.663
G01 Z0.2 F1
G00 X2.863 Y1.553
G01 Z-0.01
G01 X2.863 Y1.6 F4
G01 X2.828 Y1.6
G01 X2.828 Y1.588
G01 X2.815 Y1.588
G01 X2.815 Y1.553
G01 X2.863 Y1.553
G01 Z0.2 F1
G00 X2.78 Y1.538
G01 Z-0.01
G01 X2.865 Y1.538 F4

G03 X2.8758 Y1.5382 I0.0053 J0.0049
G01 X2.876 Y1.538
G01 X2.99 Y1.538

G03 X2.995 Y1.5355 I0.0055 J0.0049
G01 X2.995 Y1.535
G01 X3.483 Y1.535

G03 X3.4892 Y1.5378 I0.0001 J0.0079
G01 X3.489 Y1.538
G01 Z0.2 F1
G00 X3.489 Y1.537
G01 Z-0.01
G01 X3.637 Y1.685 F4
G01 X3.749 Y1.685

G03 X3.7552 Y1.6879 I0.0001 J0.0078
G01 X3.755 Y1.688
G01 Z0.2 F1
G00 X3.755 Y1.687
G01 Z-0.01
G01 X3.798 Y1.73 F4
G01 X3.878 Y1.73
G01 X3.935 Y1.673
G01 X3.935 Y1.593
G01 X3.906 Y1.564
G01 Z0.2 F1
G00 X3.906 Y1.552
G01 Z-0.01
G01 X3.935 Y1.523 F4
G01 X3.935 Y1.491
G01 X3.9 Y1.491

G03 X3.776 Y1.491 I-0.062 J-0.0077
G01 X3.741 Y1.491
G01 X3.741 Y1.523
G01 X3.77 Y1.552
G01 Z0.2 F1
G00 X3.935 Y1.443
G01 Z-0.01
G01 X3.935 Y1.476 F4
G01 X3.9 Y1.476

G02 X3.8459 Y1.4214 I-0.062 J0.0073
G01 X3.846 Y1.421
G01 X3.846 Y1.386
G01 X3.878 Y1.386
G01 X3.935 Y1.443
G01 Z0.2 F1
G00 X3.798 Y1.386
G01 Z-0.01
G01 X3.83 Y1.386 F4
G01 X3.83 Y1.421

G02 X3.7756 Y1.476 I0.008 J0.0623
G01 X3.776 Y1.476
G01 X3.741 Y1.476
G01 X3.741 Y1.443
G01 X3.798 Y1.386
G01 Z0.2 F1
G00 X3.754 Y1.578
G01 Z-0.01
G01 X3.769 Y1.564 F4

G02 X3.7719 Y1.558 I-0.0047 J-0.006
G01 X3.772 Y1.558

G02 X3.7701 Y1.553 I-0.0077 J0
G01 X3.77 Y1.553
G01 Z0.2 F1
G00 X3.683 Y1.58
G01 Z-0.01
G01 X3.749 Y1.58 F4

G02 X3.7541 Y1.578 I0.0001 J-0.0073
G01 X3.754 Y1.578
G01 Z0.2 F1
G00 X3.529 Y1.43
G01 Z-0.01
G01 X3.677 Y1.578 F4
G01 Z0.2 F1
G00 X2.995 Y1.43
G01 Z-0.01
G01 X3.529 Y1.43 F4
G01 Z0.2 F1
G00 X2.988 Y1.36
G01 Z-0.01
G01 X2.988 Y1.407 F4
G01 X2.953 Y1.407
G01 X2.953 Y1.394
G01 X2.94 Y1.394
G01 X2.94 Y1.36
G01 X2.988 Y1.36
G01 Z0.2 F1
G00 X2.988 Y1.422
G01 Z-0.01
G01 X2.988 Y1.423 F4

G02 X2.995 Y1.4302 I0.0075 J-0.0002
G01 X2.995 Y1.43
G01 Z0.2 F1
G00 X2.878 Y1.36
G01 Z-0.01
G01 X2.925 Y1.36 F4
G01 X2.925 Y1.394
G01 X2.913 Y1.394
G01 X2.913 Y1.407
G01 X2.878 Y1.407
G01 X2.878 Y1.36
G01 Z0.2 F1
G00 X2.878 Y1.422
G01 Z-0.01
G01 X2.878 Y1.423 F4

G03 X2.8626 Y1.423 I-0.0077 J-0.0002
G01 X2.863 Y1.423
G01 X2.863 Y1.352
G01 X2.863 Y1.248
G01 X2.828 Y1.248
G01 X2.828 Y1.26
G01 X2.788 Y1.26
G01 X2.788 Y1.248
G01 X2.753 Y1.248
G01 X2.753 Y1.364

G03 X2.745 Y1.3716 I-0.0079 J-0.0003
G01 X2.745 Y1.371
G01 X2.733 Y1.371

G03 X2.7275 Y1.3685 I0 J-0.0073
G01 X2.727 Y1.369
G01 Z0.2 F1
G00 X2.863 Y1.185
G01 Z-0.01
G01 X2.863 Y1.232 F4
G01 X2.828 Y1.232
G01 X2.828 Y1.22
G01 X2.815 Y1.22
G01 X2.815 Y1.185
G01 X2.863 Y1.185
G01 Z0.2 F1
G00 X2.753 Y1.185
G01 Z-0.01
G01 X2.8 Y1.185 F4
G01 X2.8 Y1.22
G01 X2.788 Y1.22
G01 X2.788 Y1.232
G01 X2.753 Y1.232
G01 X2.753 Y1.185
G01 Z0.2 F1
G00 X2.716 Y1.358
G01 Z-0.01
G01 X2.727 Y1.369 F4
G01 Z0.2 F1
G00 X2.716 Y1.347
G01 Z-0.01
G01 X2.735 Y1.328 F4
G01 X2.735 Y1.277
G01 X2.698 Y1.241
G01 X2.647 Y1.241
G01 X2.635 Y1.253
G01 Z0.2 F1
G00 X2.602 Y1.255
G01 Z-0.01
G01 X2.629 Y1.255 F4

G02 X2.6345 Y1.2525 I0 J-0.0074
G01 X2.635 Y1.253
G01 Z0.2 F1
G00 X2.584 Y1.241
G01 Z-0.01
G01 X2.597 Y1.253 F4

G02 X2.602 Y1.2547 I0.0047 J-0.0054
G01 X2.602 Y1.255
G01 Z0.2 F1
G00 X2.574 Y1.241
G01 Z-0.01
G01 X2.584 Y1.241 F4
G01 Z0.2 F1
G00 X2.569 Y1.227
G01 Z-0.01
G01 X2.829 Y0.967 F4
G01 Z0.2 F1
G00 X2.834 Y0.965
G01 Z-0.01
G01 X3.156 Y0.965 F4
G01 X3.307 Y0.814
G01 Z0.2 F1
G00 X3.313 Y0.812
G01 Z-0.01
G01 X3.39 Y0.812 F4

G03 X3.394 Y0.8106 I0.0043 J0.006
G01 X3.394 Y0.81
G01 X3.454 Y0.81

G03 X3.4618 Y0.818 I-0.0002 J0.008
G01 X3.461 Y0.818
G01 X3.461 Y0.82
G01 X3.7 Y0.82
G01 X3.7 Y0.818

G03 X3.708 Y0.8097 I0.0078 J-0.0005
G01 X3.708 Y0.81
G01 X3.774 Y0.81

G03 X3.7797 Y0.8122 I0.0004 J0.0075
G01 X3.78 Y0.812
G01 X3.798 Y0.83
G01 X3.878 Y0.83
G01 X3.935 Y0.773
G01 X3.935 Y0.692
G01 X3.906 Y0.663
G01 Z0.2 F1
G00 X3.906 Y0.652
G01 Z-0.01
G01 X3.935 Y0.623 F4
G01 X3.935 Y0.59
G01 X3.9 Y0.59

G03 X3.776 Y0.59 I-0.062 J-0.0072
G01 X3.741 Y0.59
G01 X3.741 Y0.623
G01 X3.759 Y0.642

G03 X3.7612 Y0.647 I-0.0053 J0.0054
G01 X3.761 Y0.647

G03 X3.754 Y0.6547 I-0.0073 J0.0004
G01 X3.754 Y0.655
G01 X3.708 Y0.655

G03 X3.7002 Y0.647 I-0.0002 J-0.0076
G01 X3.7 Y0.647
G01 X3.7 Y0.645
G01 X3.461 Y0.645
G01 X3.461 Y0.648

G03 X3.454 Y0.6551 I-0.0072 J-0.0001
G01 X3.454 Y0.655
G01 X3.394 Y0.655

G03 X3.3902 Y0.6537 I0.0003 J-0.0071
G01 X3.39 Y0.654
G01 X3.267 Y0.654

G03 X3.2607 Y0.6512 I-0.0004 J-0.0076
G01 X3.261 Y0.651
G01 Z0.2 F1
G00 X3.935 Y0.543
G01 Z-0.01
G01 X3.935 Y0.575 F4
G01 X3.9 Y0.575

G02 X3.846 Y0.5208 I-0.062 J0.0078
G01 X3.846 Y0.521
G01 X3.846 Y0.485
G01 X3.878 Y0.485
G01 X3.935 Y0.543
G01 Z0.2 F1
G00 X3.798 Y0.485
G01 Z-0.01
G01 X3.83 Y0.485 F4
G01 X3.83 Y0.521

G02 X3.7762 Y0.575 I0.008 J0.0618
G01 X3.776 Y0.575
G01 X3.741 Y0.575
G01 X3.741 Y0.543
G01 X3.798 Y0.485
G01 Z0.2 F1
G00 X3.257 Y0.648
G01 Z-0.01
G01 X3.261 Y0.652 F4
G01 Z0.2 F1
G00 X3.263 Y0.635
G01 Z-0.01
G01 X3.387 Y0.635 F4
G01 X3.387 Y0.474

G03 X3.3852 Y0.469 I0.0058 J-0.0048
G01 X3.385 Y0.469
G01 X3.385 Y0.422

G03 X3.3867 Y0.4168 I0.0078 J-0.0003
G01 X3.387 Y0.417
G01 X3.387 Y0.256
G01 X3.229 Y0.256
G01 X3.229 Y0.417

G03 X3.2306 Y0.4221 I-0.0064 J0.0047
G01 X3.23 Y0.422
G01 X3.23 Y0.469

G03 X3.2286 Y0.4736 I-0.0074 J0.0002
G01 X3.229 Y0.474
G01 X3.229 Y0.601

G03 X3.2155 Y0.6065 I-0.0079 J-0.0001
G01 X3.216 Y0.606
G01 Z0.2 F1
G00 X3.187 Y0.578
G01 Z-0.01
G01 X3.216 Y0.606 F4
G01 Z0.2 F1
G00 X3.185 Y0.476
G01 Z-0.01
G01 X3.185 Y0.573 F4

G02 X3.187 Y0.578 I0.0079 J-0.0003
G01 Z0.2 F1
G00 X3.065 Y0.356
G01 Z-0.01
G01 X3.185 Y0.476 F4
G01 Z0.2 F1
G00 X2.306 Y0.356
G01 Z-0.01
G01 X3.065 Y0.356 F4
G01 Z0.2 F1
G00 X2.168 Y0.493
G01 Z-0.01
G01 X2.306 Y0.356 F4
G01 Z0.2 F1
G00 X1.421 Y0.495
G01 Z-0.01
G01 X1.98 Y0.495 F4
G01 X1.98 Y0.529

G02 X1.9558 Y0.56 I0.0079 J0.0311
G01 X1.956 Y0.56
G01 X1.956 Y0.605

G02 X1.9802 Y0.6364 I0.0319 J0.0005
G01 X1.98 Y0.637
G01 X1.98 Y0.67
G01 X1.421 Y0.67
G01 X1.421 Y0.495
G01 Z0.2 F1
G00 X1.995 Y0.495
G01 Z-0.01
G01 X2.08 Y0.495 F4
G01 X2.08 Y0.529

G02 X2.0558 Y0.56 I0.0079 J0.0311
G01 X2.056 Y0.56
G01 X2.056 Y0.605

G02 X2.0801 Y0.6364 I0.0319 J0.0005
G01 X2.08 Y0.637
G01 X2.08 Y0.67
G01 X1.995 Y0.67
G01 X1.995 Y0.637

G02 X2.0202 Y0.605 I-0.0071 J-0.0315
G01 X2.02 Y0.605
G01 X2.021 Y0.605
G01 X2.021 Y0.56
G01 X2.02 Y0.56

G02 X1.9951 Y0.5288 I-0.0321 J0.0001
G01 X1.995 Y0.529
G01 X1.995 Y0.495
G01 Z0.2 F1
G00 X2.095 Y0.495
G01 Z-0.01
G01 X2.163 Y0.495 F4

G02 X2.1677 Y0.4928 I-0.0004 J-0.0071
G01 X2.168 Y0.493
G01 Z0.2 F1
G00 X2.095 Y0.67
G01 Z-0.01
G01 X2.255 Y0.67 F4
G01 X2.255 Y0.628

G03 X2.257 Y0.623 I0.008 J0.0002
G01 X2.307 Y0.573
G01 Z0.2 F1
G00 X2.321 Y0.578
G01 Z-0.01
G01 X2.321 Y0.67 F4
G01 X2.955 Y0.67
G01 X2.955 Y0.518

G03 X2.963 Y0.51 I0.0077 J-0.0003
G01 X2.998 Y0.51

G03 X3.0034 Y0.5126 I-0.0005 J0.0077
G01 X3.003 Y0.513
G01 Z0.2 F1
G00 X2.948 Y0.685
G01 Z-0.01
G01 X2.963 Y0.685 F4
G01 X3.028 Y0.685
G01 X3.085 Y0.743
G01 X3.085 Y0.823
G01 X3.071 Y0.837
G01 Z0.2 F1
G00 X3.003 Y0.512
G01 Z-0.01
G01 X3.028 Y0.537 F4
G01 Z0.2 F1
G00 X3.03 Y0.543
G01 Z-0.01
G01 X3.03 Y0.639 F4
G01 X3.17 Y0.779
G01 Z0.2 F1
G00 X3.112 Y0.848
G01 Z-0.01
G01 X3.17 Y0.79 F4
G01 Z0.2 F1
G00 X3.076 Y0.85
G01 Z-0.01
G01 X3.106 Y0.85 F4

G02 X3.1115 Y0.8476 I0 J-0.0073
G01 X3.112 Y0.848
G01 Z0.2 F1
G00 X2.89 Y0.743
G01 Z-0.01
G01 X2.948 Y0.685 F4
G01 Z0.2 F1
G00 X2.89 Y0.743
G01 Z-0.01
G01 X2.89 Y0.823 F4
G01 X2.905 Y0.838

G03 X2.9066 Y0.843 I-0.0059 J0.0047
G01 X2.907 Y0.843

G03 X2.899 Y0.8506 I-0.0079 J-0.0003
G01 X2.899 Y0.85
G01 X2.784 Y0.85
G01 X2.426 Y1.209
G01 X2.426 Y1.249

G03 X2.4126 Y1.2545 I-0.008 J-0.0004
G01 X2.413 Y1.254
G01 X2.399 Y1.241
G01 X2.38 Y1.241
G01 X2.38 Y1.276

G03 X2.4002 Y1.303 I-0.0074 J0.0266
G01 X2.4 Y1.303

G03 X2.365 Y1.2763 I-0.0274 J-0.0004
G01 X2.365 Y1.276
G01 X2.365 Y1.241
G01 X2.347 Y1.241
G01 X2.332 Y1.256
G01 Z0.2 F1
G00 X2.3 Y1.235
G01 Z-0.01
G01 X2.321 Y1.256 F4

G02 X2.3316 Y1.2556 I0.0051 J-0.0054
G01 X2.332 Y1.256
G01 Z0.2 F1
G00 X2.009 Y1.235
G01 Z-0.01
G01 X2.3 Y1.235 F4
G01 Z0.2 F1
G00 X1.88 Y1.364
G01 Z-0.01
G01 X2.009 Y1.235 F4
G01 Z0.2 F1
G00 X1.88 Y1.364
G01 Z-0.01
G01 X1.88 Y2.388 F4

G03 X1.873 Y2.3951 I-0.0072 J-0.0001
G01 X1.873 Y2.395
G01 X1.435 Y2.395
G01 X1.435 Y2.429

G03 X1.4596 Y2.46 I-0.0074 J0.0311
G01 X1.46 Y2.46
G01 X1.46 Y2.46
G01 X1.46 Y2.506
G01 X1.46 Y2.506

G03 X1.435 Y2.5371 I-0.0324 J-0.0005
G01 X1.435 Y2.537
G01 X1.435 Y2.57
G01 X2.095 Y2.57
G01 X2.095 Y2.395
G01 X1.983 Y2.395

G03 X1.9758 Y2.388 I-0.0001 J-0.0071
G01 X1.975 Y2.388
G01 X1.975 Y1.406

G03 X1.9766 Y1.4007 I0.0079 J-0.0004
G01 X1.977 Y1.401
G01 Z0.2 F1
G00 X1.061 Y2.395
G01 Z-0.01
G01 X1.42 Y2.395 F4
G01 X1.42 Y2.429

G02 X1.3956 Y2.46 I0.0076 J0.0311
G01 X1.395 Y2.46
G01 X1.395 Y2.506

G02 X1.4199 Y2.5372 I0.0326 J-0.0005
G01 X1.42 Y2.537
G01 X1.42 Y2.57
G01 X1.061 Y2.57
G01 X1.061 Y2.566

G02 X1.0469 Y2.5609 I-0.008 J0.0001
G01 X1.047 Y2.561
G01 Z0.2 F1
G00 X1.061 Y2.395
G01 Z-0.01
G01 X1.061 Y2.4 F4

G03 X1.0471 Y2.4049 I-0.008 J-0.0005
G01 X1.047 Y2.405
G01 Z0.2 F1
G00 X1.028 Y2.385
G01 Z-0.01
G01 X1.047 Y2.405 F4
G01 Z0.2 F1
G00 X0.948 Y2.385
G01 Z-0.01
G01 X1.028 Y2.385 F4
G01 Z0.2 F1
G00 X0.89 Y2.443
G01 Z-0.01
G01 X0.948 Y2.385 F4
G01 Z0.2 F1
G00 X0.89 Y2.443
G01 Z-0.01
G01 X0.89 Y2.523 F4
G01 X0.948 Y2.58
G01 X1.028 Y2.58
G01 X1.047 Y2.561
G01 Z0.2 F1
G00 X1.977 Y1.4
G01 Z-0.01
G01 X2.045 Y1.332 F4
G01 Z0.2 F1
G00 X2.051 Y1.33
G01 Z-0.01
G01 X2.195 Y1.33 F4

G03 X2.2003 Y1.3317 I0.0004 J0.0079
G01 X2.2 Y1.332
G01 X2.238 Y1.332
G01 X2.238 Y1.32
G01 X2.278 Y1.32
G01 X2.278 Y1.36
G01 X2.238 Y1.36
G01 X2.238 Y1.348
G01 X2.203 Y1.348
G01 X2.203 Y1.523

G03 X2.1878 Y1.523 I-0.0076 J-0.0003
G01 X2.188 Y1.523
G01 X2.188 Y1.522
G01 X2.153 Y1.522
G01 X2.153 Y1.535
G01 X2.113 Y1.535
G01 X2.113 Y1.522
G01 X2.078 Y1.522
G01 X2.078 Y1.638
G01 X2.19 Y1.638

G03 X2.2009 Y1.6381 I0.0054 J0.0048
G01 X2.201 Y1.638
G01 X2.303 Y1.638

G03 X2.3103 Y1.6449 I-0.0001 J0.0074
G01 X2.31 Y1.645
G01 X2.31 Y1.665
G01 X2.438 Y1.665

G03 X2.4442 Y1.6679 I0.0002 J0.0076
G01 X2.444 Y1.668
G01 Z0.2 F1
G00 X2.188 Y1.46
G01 Z-0.01
G01 X2.188 Y1.507 F4
G01 X2.153 Y1.507
G01 X2.153 Y1.494
G01 X2.14 Y1.494
G01 X2.14 Y1.46
G01 X2.188 Y1.46
G01 Z0.2 F1
G00 X2.078 Y1.46
G01 Z-0.01
G01 X2.125 Y1.46 F4
G01 X2.125 Y1.494
G01 X2.113 Y1.494
G01 X2.113 Y1.507
G01 X2.078 Y1.507
G01 X2.078 Y1.46
G01 Z0.2 F1
G00 X2.444 Y1.667
G01 Z-0.01
G01 X2.589 Y1.812 F4
G01 Z0.2 F1
G00 X2.532 Y1.826
G01 Z-0.01
G01 X2.583 Y1.826 F4

G02 X2.5911 Y1.818 I0.0001 J-0.008
G01 X2.591 Y1.818

G02 X2.5891 Y1.8129 I-0.0079 J0
G01 X2.589 Y1.813
G01 Z0.2 F1
G00 X2.495 Y1.862
G01 Z-0.01
G01 X2.532 Y1.826 F4
G01 Z0.2 F1
G00 X2.495 Y1.862
G01 Z-0.01
G01 X2.495 Y1.88 F4

G03 X2.493 Y1.8851 I-0.0073 J0.0001
G01 X2.493 Y1.885
G01 Z0.2 F1
G00 X2.128 Y2.908
G01 Z-0.01
G01 X2.128 Y2.956 F4
G01 X2.175 Y2.956
G01 X2.175 Y2.921
G01 X2.163 Y2.921
G01 X2.163 Y2.908
G01 X2.128 Y2.908
G01 Z0.2 F1
G00 X2.19 Y2.956
G01 Z-0.01
G01 X2.238 Y2.956 F4
G01 X2.238 Y2.908
G01 X2.203 Y2.908
G01 X2.203 Y2.921
G01 X2.19 Y2.921
G01 X2.19 Y2.956
G01 Z0.2 F1
G00 X2.428 Y2.908
G01 Z-0.01
G01 X2.428 Y2.956 F4
G01 X2.475 Y2.956
G01 X2.475 Y2.921
G01 X2.463 Y2.921
G01 X2.463 Y2.908
G01 X2.428 Y2.908
G01 Z0.2 F1
G00 X2.49 Y2.956
G01 Z-0.01
G01 X2.538 Y2.956 F4
G01 X2.538 Y2.908
G01 X2.503 Y2.908
G01 X2.503 Y2.921
G01 X2.49 Y2.921
G01 X2.49 Y2.956
G01 Z0.2 F1
G00 X2.89 Y1.843
G01 Z-0.01
G01 X2.89 Y1.923 F4
G01 X2.948 Y1.98
G01 X3.028 Y1.98
G01 X3.085 Y1.923
G01 X3.085 Y1.843
G01 X3.028 Y1.785
G01 X2.948 Y1.785
G01 X2.89 Y1.843
G01 Z0.2 F1
G00 X0.841 Y0.543
G01 Z-0.01
G01 X0.841 Y0.623 F4
G01 X0.898 Y0.68
G01 X0.978 Y0.68
G01 X1.035 Y0.623
G01 X1.035 Y0.543
G01 X0.978 Y0.485
G01 X0.898 Y0.485
G01 X0.841 Y0.543
G01 Z0.2 F1
G00 X3.229 Y0.236
G01 Z-0.01
G01 X3.3 Y0.236 F4
G01 X3.3 Y0.202
G01 X3.264 Y0.202
G01 X3.264 Y0.165
G01 X3.229 Y0.165
G01 X3.229 Y0.236
G01 Z0.2 F1
G00 X3.316 Y0.236
G01 Z-0.01
G01 X3.387 Y0.236 F4
G01 X3.387 Y0.165
G01 X3.352 Y0.165
G01 X3.352 Y0.202
G01 X3.316 Y0.202
G01 X3.316 Y0.236
G01 Z0.2 F1
G00 X3.387 Y0.079
G01 Z-0.01
G01 X3.387 Y0.15 F4
G01 X3.352 Y0.15
G01 X3.352 Y0.114
G01 X3.316 Y0.114
G01 X3.316 Y0.079
G01 X3.387 Y0.079
G01 Z0.2 F1
G00 X3.229 Y0.079
G01 Z-0.01
G01 X3.3 Y0.079 F4
G01 X3.3 Y0.114
G01 X3.264 Y0.114
G01 X3.264 Y0.15
G01 X3.229 Y0.15
G01 X3.229 Y0.079
G01 Z0.2 F1
G00 X2.095 Y0.495
G01 Z-0.01
G01 X2.095 Y0.529 F4

G03 X2.1198 Y0.56 I-0.0071 J0.0311
G01 X2.12 Y0.56
G01 X2.121 Y0.56
G01 X2.121 Y0.605
G01 X2.12 Y0.605

G03 X2.0949 Y0.6368 I-0.0321 J0.0005
G01 X2.095 Y0.637
G01 X2.095 Y0.67
G01 Z0.2 F1
G00 X2.878 Y1.422
G01 Z-0.01
G01 X2.913 Y1.422 F4
G01 X2.913 Y1.435
G01 X2.953 Y1.435
G01 X2.953 Y1.422
G01 X2.988 Y1.422
G01 Z0.2 F1
G00 X2.92 Y2.46
G01 Z-0.01
G01 X2.921 Y2.46 F4
G01 X2.921 Y2.506
G01 X2.92 Y2.506

G03 X2.856 Y2.506 I-0.032 J-0.0005
G01 X2.856 Y2.46

G03 X2.92 Y2.46 I0.032 J0.0001
G01 Z0.2 F1
G00 X2.82 Y2.46
G01 Z-0.01
G01 X2.821 Y2.46 F4
G01 X2.821 Y2.506
G01 X2.82 Y2.506

G03 X2.756 Y2.506 I-0.032 J-0.0005
G01 X2.756 Y2.46

G03 X2.82 Y2.46 I0.032 J0.0001
G01 Z0.2 F1
G00 X2.72 Y2.46
G01 Z-0.01
G01 X2.72 Y2.46 F4
G01 X2.72 Y2.506
G01 X2.72 Y2.506

G03 X2.6552 Y2.506 I-0.0324 J-0.0005
G01 X2.655 Y2.506
G01 X2.655 Y2.46

G03 X2.7202 Y2.46 I0.0326 J0.0001
G01 X2.72 Y2.46
G01 Z0.2 F1
G00 X2.62 Y2.46
G01 Z-0.01
G01 X2.62 Y2.46 F4
G01 X2.62 Y2.506
G01 X2.62 Y2.506

G03 X2.5552 Y2.506 I-0.0324 J-0.0005
G01 X2.555 Y2.506
G01 X2.555 Y2.46

G03 X2.6202 Y2.46 I0.0326 J0.0001
G01 X2.62 Y2.46
G01 Z0.2 F1
G00 X2.32 Y2.46
G01 Z-0.01
G01 X2.321 Y2.46 F4
G01 X2.321 Y2.506
G01 X2.32 Y2.506

G03 X2.2556 Y2.506 I-0.0322 J-0.0005
G01 X2.255 Y2.506
G01 X2.255 Y2.46

G03 X2.3206 Y2.46 I0.0328 J0.0001
G01 X2.32 Y2.46
G01 Z0.2 F1
G00 X2.06 Y2.46
G01 Z-0.01
G01 X2.061 Y2.46 F4
G01 X2.061 Y2.506
G01 X2.06 Y2.506

G03 X1.9956 Y2.506 I-0.0322 J-0.0005
G01 X1.995 Y2.506
G01 X1.995 Y2.46

G03 X2.0606 Y2.46 I0.0328 J0.0001
G01 X2.06 Y2.46
G01 Z0.2 F1
G00 X1.86 Y2.46
G01 Z-0.01
G01 X1.861 Y2.46 F4
G01 X1.861 Y2.506
G01 X1.86 Y2.506

G03 X1.7958 Y2.506 I-0.0321 J-0.0005
G01 X1.796 Y2.506
G01 X1.796 Y2.46

G03 X1.8598 Y2.46 I0.0319 J0.0001
G01 X1.86 Y2.46
G01 Z0.2 F1
G00 X1.76 Y2.46
G01 Z-0.01
G01 X1.761 Y2.46 F4
G01 X1.761 Y2.506
G01 X1.76 Y2.506

G03 X1.6958 Y2.506 I-0.0321 J-0.0005
G01 X1.696 Y2.506
G01 X1.696 Y2.46

G03 X1.7598 Y2.46 I0.0319 J0.0001
G01 X1.76 Y2.46
G01 Z0.2 F1
G00 X1.66 Y2.46
G01 Z-0.01
G01 X1.661 Y2.46 F4
G01 X1.661 Y2.506
G01 X1.66 Y2.506

G03 X1.596 Y2.506 I-0.032 J-0.0005
G01 X1.596 Y2.46

G03 X1.66 Y2.46 I0.032 J0.0001
G01 Z0.2 F1
G00 X1.56 Y2.46
G01 Z-0.01
G01 X1.561 Y2.46 F4
G01 X1.561 Y2.506
G01 X1.56 Y2.506

G03 X1.496 Y2.506 I-0.032 J-0.0005
G01 X1.496 Y2.46

G03 X1.56 Y2.46 I0.032 J0.0001
G01 Z0.2 F1
G00 X1.36 Y2.46
G01 Z-0.01
G01 X1.36 Y2.46 F4
G01 X1.36 Y2.506
G01 X1.36 Y2.506

G03 X1.2952 Y2.506 I-0.0324 J-0.0005
G01 X1.295 Y2.506
G01 X1.295 Y2.46

G03 X1.3602 Y2.46 I0.0326 J0.0001
G01 X1.36 Y2.46
G01 Z0.2 F1
G00 X1.26 Y2.46
G01 Z-0.01
G01 X1.261 Y2.46 F4
G01 X1.261 Y2.506
G01 X1.26 Y2.506

G03 X1.1954 Y2.506 I-0.0323 J-0.0005
G01 X1.195 Y2.506
G01 X1.195 Y2.46

G03 X1.2604 Y2.46 I0.0327 J0.0001
G01 X1.26 Y2.46
G01 Z0.2 F1
G00 X1.16 Y2.46
G01 Z-0.01
G01 X1.161 Y2.46 F4
G01 X1.161 Y2.506
G01 X1.16 Y2.506

G03 X1.0954 Y2.506 I-0.0323 J-0.0005
G01 X1.095 Y2.506
G01 X1.095 Y2.46

G03 X1.1604 Y2.46 I0.0327 J0.0001
G01 X1.16 Y2.46
G01 Z0.2 F1
G00 X2.92 Y0.56
G01 Z-0.01
G01 X2.921 Y0.56 F4
G01 X2.921 Y0.605
G01 X2.92 Y0.605

G03 X2.856 Y0.605 I-0.032 J0.0005
G01 X2.856 Y0.56

G03 X2.92 Y0.56 I0.032 J0.0001
G01 Z0.2 F1
G00 X2.82 Y0.56
G01 Z-0.01
G01 X2.821 Y0.56 F4
G01 X2.821 Y0.605
G01 X2.82 Y0.605

G03 X2.756 Y0.605 I-0.032 J0.0005
G01 X2.756 Y0.56

G03 X2.82 Y0.56 I0.032 J0.0001
G01 Z0.2 F1
G00 X2.72 Y0.56
G01 Z-0.01
G01 X2.72 Y0.56 F4
G01 X2.72 Y0.605
G01 X2.72 Y0.605

G03 X2.6552 Y0.605 I-0.0324 J0.0005
G01 X2.655 Y0.605
G01 X2.655 Y0.56

G03 X2.7202 Y0.56 I0.0326 J0.0001
G01 X2.72 Y0.56
G01 Z0.2 F1
G00 X2.62 Y0.56
G01 Z-0.01
G01 X2.62 Y0.56 F4
G01 X2.62 Y0.605
G01 X2.62 Y0.605

G03 X2.5552 Y0.605 I-0.0324 J0.0005
G01 X2.555 Y0.605
G01 X2.555 Y0.56

G03 X2.6202 Y0.56 I0.0326 J0.0001
G01 X2.62 Y0.56
G01 Z0.2 F1
G00 X2.52 Y0.56
G01 Z-0.01
G01 X2.52 Y0.56 F4
G01 X2.52 Y0.605
G01 X2.52 Y0.605

G03 X2.4554 Y0.605 I-0.0323 J0.0005
G01 X2.455 Y0.605
G01 X2.455 Y0.56

G03 X2.5204 Y0.56 I0.0327 J0.0001
G01 X2.52 Y0.56
G01 Z0.2 F1
G00 X2.42 Y0.56
G01 Z-0.01
G01 X2.421 Y0.56 F4
G01 X2.421 Y0.605
G01 X2.42 Y0.605

G03 X2.3554 Y0.605 I-0.0323 J0.0005
G01 X2.355 Y0.605
G01 X2.355 Y0.56

G03 X2.4204 Y0.56 I0.0327 J0.0001
G01 X2.42 Y0.56
G01 Z0.2 F1
G00 X1.92 Y0.56
G01 Z-0.01
G01 X1.921 Y0.56 F4
G01 X1.921 Y0.605
G01 X1.92 Y0.605

G03 X1.856 Y0.605 I-0.032 J0.0005
G01 X1.856 Y0.56

G03 X1.92 Y0.56 I0.032 J0.0001
G01 Z0.2 F1
G00 X1.82 Y0.56
G01 Z-0.01
G01 X1.821 Y0.56 F4
G01 X1.821 Y0.605
G01 X1.82 Y0.605

G03 X1.756 Y0.605 I-0.032 J0.0005
G01 X1.756 Y0.56

G03 X1.82 Y0.56 I0.032 J0.0001
G01 Z0.2 F1
G00 X1.72 Y0.56
G01 Z-0.01
G01 X1.72 Y0.56 F4
G01 X1.72 Y0.605
G01 X1.72 Y0.605

G03 X1.6552 Y0.605 I-0.0324 J0.0005
G01 X1.655 Y0.605
G01 X1.655 Y0.56

G03 X1.7202 Y0.56 I0.0326 J0.0001
G01 X1.72 Y0.56
G01 Z0.2 F1
G00 X1.62 Y0.56
G01 Z-0.01
G01 X1.62 Y0.56 F4
G01 X1.62 Y0.605
G01 X1.62 Y0.605

G03 X1.5552 Y0.605 I-0.0324 J0.0005
G01 X1.555 Y0.605
G01 X1.555 Y0.56

G03 X1.6202 Y0.56 I0.0326 J0.0001
G01 X1.62 Y0.56
G01 Z0.2 F1
G00 X1.52 Y0.56
G01 Z-0.01
G01 X1.52 Y0.56 F4
G01 X1.52 Y0.605
G01 X1.52 Y0.605

G03 X1.4554 Y0.605 I-0.0323 J0.0005
G01 X1.455 Y0.605
G01 X1.455 Y0.56

G03 X1.5204 Y0.56 I0.0327 J0.0001
G01 X1.52 Y0.56
G01 Z0.2 F1
G00 X0.001 Y-0.006
G01 Z-0.01
G01 X4.21 Y-0.006 F4

G03 X4.2162 Y0.0001 I0 J0.0062
G01 X4.217 Y0
G01 X4.217 Y3.151

G03 X4.21 Y3.157 I-0.007 J-0.0003
G01 X0.001 Y3.157

G03 X-0.0058 Y3.151 I-0.0005 J-0.0063
G01 X-0.006 Y3.151
G01 X-0.006 Y0

G03 X0.0011 Y-0.0062 I0.0065 J0.0002
G01 X0.001 Y-0.006
G01 Z0.2 F1
G00 X0.007 Y0.007
G01 Z-0.01
G01 X4.203 Y0.007 F4
G01 X4.203 Y3.144
G01 X0.007 Y3.144
G01 X0.007 Y0.007

G01 Z0.2 F1
G00 X2.019 Y1.274
G01 Z-0.01
G03 X2.028 Y1.2704 I0.0088 J0.0089 F4
G01 X2.028 Y1.27

G01 Z0.2 F1
G00 X2.317 Y1.302
G01 Z-0.01
G03 X2.3201 Y1.31 I-0.009 J0.0082 F4
G01 X2.321 Y1.31

G01 Z0.2 F1
G00 X2.53 Y2.578
G01 Z-0.01
G03 X2.538 Y2.5701 I0.0076 J-0.0003 F4
G01 X2.538 Y2.57

G01 Z0.2 F1
G00 X2.56 Y1.953
G01 Z-0.01
G03 X2.565 Y1.9506 I0.0054 J0.0048 F4
G01 X2.565 Y1.95

G01 Z0.2 F1
G00 X3.906 Y2.163
G01 Z-0.01
G03 X3.9062 Y2.1532 I0.0057 J-0.0048 F4
G01 X3.906 Y2.153

G01 Z0.2 F1
G00 X3.108 Y2.18
G01 Z-0.01
G03 X3.1023 Y2.1777 I-0.0004 J-0.0071 F4
G01 X3.102 Y2.178

G01 Z0.2 F1
G00 X2.677 Y1.753
G01 Z-0.01
G03 X2.683 Y1.7403 I0.0055 J-0.0052 F4
G01 X2.683 Y1.74

G01 Z0.2 F1
G00 X2.773 Y1.545
G01 Z-0.01
G03 X2.78 Y1.538 I0.0074 J0.0004 F4

G01 Z0.2 F1
G00 X3.906 Y1.563
G01 Z-0.01
G03 X3.906 Y1.553 I0.0057 J-0.005 F4

G01 Z0.2 F1
G00 X3.683 Y1.58
G01 Z-0.01
G03 X3.6772 Y1.5778 I-0.0005 J-0.0073 F4
G01 X3.677 Y1.578

G01 Z0.2 F1
G00 X2.716 Y1.358
G01 Z-0.01
G03 X2.7156 Y1.3477 I0.0059 J-0.0054 F4
G01 X2.716 Y1.348

G01 Z0.2 F1
G00 X2.574 Y1.241
G01 Z-0.01
G03 X2.5684 Y1.2275 I0.0005 J-0.0081 F4
G01 X2.569 Y1.228

G01 Z0.2 F1
G00 X2.829 Y0.968
G01 Z-0.01
G03 X2.834 Y0.9656 I0.0055 J0.005 F4
G01 X2.834 Y0.965

G01 Z0.2 F1
G00 X3.307 Y0.814
G01 Z-0.01
G03 X3.313 Y0.812 I0.006 J0.0055 F4

G01 Z0.2 F1
G00 X3.906 Y0.663
G01 Z-0.01
G03 X3.906 Y0.652 I0.0057 J-0.0055 F4

G01 Z0.2 F1
G00 X3.257 Y0.647
G01 Z-0.01
G03 X3.263 Y0.6351 I0.0055 J-0.0047 F4
G01 X3.263 Y0.635

G01 Z0.2 F1
G00 X2.307 Y0.573
G01 Z-0.01
G03 X2.3209 Y0.578 I0.006 J0.0052 F4
G01 X2.321 Y0.578

G01 Z0.2 F1
G00 X3.028 Y0.538
G01 Z-0.01
G03 X3.03 Y0.543 I-0.0053 J0.0049 F4

G01 Z0.2 F1
G00 X3.172 Y0.785
G01 Z-0.01
G03 X3.17 Y0.79 I-0.0079 J-0.0003 F4

G01 Z0.2 F1
G00 X3.17 Y0.78
G01 Z-0.01
G03 X3.1716 Y0.785 I-0.0059 J0.0047 F4
G01 X3.172 Y0.785

G01 Z0.2 F1
G00 X3.076 Y0.85
G01 Z-0.01
G03 X3.0708 Y0.8379 I0.0003 J-0.0073 F4
G01 X3.071 Y0.838

G01 Z0.2 F1
G00 X2.045 Y1.333
G01 Z-0.01
G03 X2.051 Y1.3306 I0.0055 J0.0049 F4
G01 X2.051 Y1.33

G01 Z0.2 F1
G00 X1.051 Y2.483
G01 Z-0.01
G03 X1.051 Y2.483 I-0.0631 J-0.0002 F4

G01 Z0.2 F1
G00 X3.051 Y1.883
G01 Z-0.01
G03 X3.051 Y1.883 I-0.0631 J-0.0004 F4

G01 Z0.2 F1
G00 X3.051 Y0.783
G01 Z-0.01
G03 X3.051 Y0.783 I-0.0631 J-0.0003 F4

G01 Z0.2 F1
G00 X1.001 Y0.583
G01 Z-0.01
G03 X1.001 Y0.583 I-0.0631 J-0.0002 F4

G01 Z0.2 F1
G00 X2.7 Y1.403
G01 Z-0.01
G03 X2.6998 Y1.4059 I-0.0271 J-0.0004 F4
G01 X2.7 Y1.406

G01 Z0.2 F1
G00 X2.692 Y1.422
G01 Z-0.01
G03 X2.7001 Y1.403 I-0.0191 J-0.0194 F4
G01 X2.7 Y1.403
(... pad touchdown start ...)
G00 Z0.25
G00 X2.558 Y1.888
G01 Z-0.005 F1
G04 P0.25
G00 Z0.25
G00 X2.558 Y1.303
G01 Z-0.005
G04 P0.25
G00 Z0.25
G00 X2.888 Y2.483
G01 Z-0.005
G04 P0.25
G00 Z0.25
G00 X2.788 Y2.483
G01 Z-0.005
G04 P0.25
G00 Z0.25
G00 X2.688 Y2.483
G01 Z-0.005
G04 P0.25
G00 Z0.25
G00 X2.588 Y2.483
G01 Z-0.005
G04 P0.25
G00 Z0.25
G00 X2.488 Y2.483
G01 Z-0.005
G04 P0.25
G00 Z0.25
G00 X2.388 Y2.483
G01 Z-0.005
G04 P0.25
G00 Z0.25
G00 X2.288 Y2.483
G01 Z-0.005
G04 P0.25
G00 Z0.25
G00 X2.188 Y2.483
G01 Z-0.005
G04 P0.25
G00 Z0.25
G00 X2.028 Y2.483
G01 Z-0.005
G04 P0.25
G00 Z0.25
G00 X1.928 Y2.483
G01 Z-0.005
G04 P0.25
G00 Z0.25
G00 X1.828 Y2.483
G01 Z-0.005
G04 P0.25
G00 Z0.25
G00 X1.728 Y2.483
G01 Z-0.005
G04 P0.25
G00 Z0.25
G00 X1.628 Y2.483
G01 Z-0.005
G04 P0.25
G00 Z0.25
G00 X1.528 Y2.483
G01 Z-0.005
G04 P0.25
G00 Z0.25
G00 X1.428 Y2.483
G01 Z-0.005
G04 P0.25
G00 Z0.25
G00 X1.328 Y2.483
G01 Z-0.005
G04 P0.25
G00 Z0.25
G00 X1.228 Y2.483
G01 Z-0.005
G04 P0.25
G00 Z0.25
G00 X1.128 Y2.483
G01 Z-0.005
G04 P0.25
G00 Z0.25
G00 X2.888 Y0.583
G01 Z-0.005
G04 P0.25
G00 Z0.25
G00 X2.788 Y0.583
G01 Z-0.005
G04 P0.25
G00 Z0.25
G00 X2.688 Y0.583
G01 Z-0.005
G04 P0.25
G00 Z0.25
G00 X2.588 Y0.583
G01 Z-0.005
G04 P0.25
G00 Z0.25
G00 X2.488 Y0.583
G01 Z-0.005
G04 P0.25
G00 Z0.25
G00 X2.388 Y0.583
G01 Z-0.005
G04 P0.25
G00 Z0.25
G00 X2.188 Y0.583
G01 Z-0.005
G04 P0.25
G00 Z0.25
G00 X2.088 Y0.583
G01 Z-0.005
G04 P0.25
G00 Z0.25
G00 X1.988 Y0.583
G01 Z-0.005
G04 P0.25
G00 Z0.25
G00 X1.888 Y0.583
G01 Z-0.005
G04 P0.25
G00 Z0.25
G00 X1.788 Y0.583
G01 Z-0.005
G04 P0.25
G00 Z0.25
G00 X1.688 Y0.583
G01 Z-0.005
G04 P0.25
G00 Z0.25
G00 X1.588 Y0.583
G01 Z-0.005
G04 P0.25
G00 Z0.25
G00 X1.488 Y0.583
G01 Z-0.005
G04 P0.25
G00 Z0.25
G00 X0.988 Y2.483
G01 Z-0.005
G04 P0.25
G00 Z0.25
G00 X2.988 Y1.883
G01 Z-0.005
G04 P0.25
G00 Z0.25
G00 X2.988 Y0.783
G01 Z-0.005
G04 P0.25
G00 Z0.25
G00 X0.938 Y0.583
G01 Z-0.005
G04 P0.25
G00 Z0.25
G00 X3.838 Y0.732
G01 Z-0.005
G04 P0.25
G00 Z0.25
G00 X3.838 Y0.583
G01 Z-0.005
G04 P0.25
G00 Z0.25
G00 X3.838 Y2.233
G01 Z-0.005
G04 P0.25
G00 Z0.25
G00 X3.838 Y2.083
G01 Z-0.005
G04 P0.25
G00 Z0.25
G00 X3.838 Y1.633
G01 Z-0.005
G04 P0.25
G00 Z0.25
G00 X3.838 Y1.483
G01 Z-0.005
G04 P0.25
G00 Z0.25
G00 X2.373 Y1.603
G01 Z-0.005
G04 P0.25
G00 Z0.25
G00 X2.373 Y1.503
G01 Z-0.005
G04 P0.25
G00 Z0.25
G00 X2.373 Y1.403
G01 Z-0.005
G04 P0.25
G00 Z0.25
G00 X2.373 Y1.303
G01 Z-0.005
G04 P0.25
G00 Z0.25
G00 X2.673 Y1.303
G01 Z-0.005
G04 P0.25
G00 Z0.25
G00 X2.673 Y1.403
G01 Z-0.005
G04 P0.25
G00 Z0.25
G00 X2.673 Y1.503
G01 Z-0.005
G04 P0.25
G00 Z0.25
G00 X2.673 Y1.603
G01 Z-0.005
G04 P0.25
G00 Z0.25
G00 X3.308 Y0.556
G01 Z-0.005
G04 P0.25
G00 Z0.25
G00 X3.308 Y0.733
G01 Z-0.005
G04 P0.25
G00 Z0.25
G00 X3.643 Y0.733
G01 Z-0.005
G04 P0.25
G00 Z0.25
G00 X3.519 Y0.733
G01 Z-0.005
G04 P0.25
G00 Z0.25
G00 X2.74 Y1.608
G01 Z-0.005
G04 P0.25
G00 Z0.25
G00 X2.808 Y1.608
G01 Z-0.005
G04 P0.25
G00 Z0.25
G00 X2.258 Y1.515
G01 Z-0.005
G04 P0.25
G00 Z0.25
G00 X2.258 Y1.583
G01 Z-0.005
G04 P0.25
G00 Z0.25
G00 X2.258 Y1.34
G01 Z-0.005
G04 P0.25
G00 Z0.25
G00 X2.258 Y1.408
G01 Z-0.005
G04 P0.25
G00 Z0.25
G00 X2.808 Y1.415
G01 Z-0.005
G04 P0.25
G00 Z0.25
G00 X2.808 Y1.483
G01 Z-0.005
G04 P0.25
G00 Z0.25
G00 X2.808 Y1.24
G01 Z-0.005
G04 P0.25
G00 Z0.25
G00 X2.808 Y1.308
G01 Z-0.005
G04 P0.25
G00 Z0.25
G00 X2.133 Y1.583
G01 Z-0.005
G04 P0.25
G00 Z0.25
G00 X2.133 Y1.515
G01 Z-0.005
G04 P0.25
G00 Z0.25
G00 X2.933 Y1.483
G01 Z-0.005
G04 P0.25
G00 Z0.25
G00 X2.933 Y1.415
G01 Z-0.005
G04 P0.25
G00 Z0.25
G00 X3.308 Y0.335
G01 Z-0.005
G04 P0.25
G00 Z0.25
G00 X3.308 Y0.158
G01 Z-0.005
G04 P0.25
G00 Z0.25
G00 X2.483 Y2.69
G01 Z-0.005
G04 P0.25
G00 Z0.25
G00 X2.483 Y2.758
G01 Z-0.005
G04 P0.25
G00 Z0.25
G00 X2.183 Y2.683
G01 Z-0.005
G04 P0.25
G00 Z0.25
G00 X2.183 Y2.751
G01 Z-0.005
G04 P0.25
G00 Z0.25
G00 X2.483 Y2.833
G01 Z-0.005
G04 P0.25
G00 Z0.25
G00 X2.483 Y2.901
G01 Z-0.005
G04 P0.25
G00 Z0.25
G00 X2.183 Y2.833
G01 Z-0.005
G04 P0.25
G00 Z0.25
G00 X2.183 Y2.901
G01 Z-0.005
G04 P0.25
G00 Z0.25
(... pad touchdown end ...)
G00 Z0.25
G00 X0 Y0
M05 (Stop spindle)
M02 (Program End)

