(Generated By: Line Grinder Version: 01.04)
(Home Page: http://www.OfItselfSo.com/LineGrinder/LineGrinder.php)
(Generated from file: C:\Users\Huwok\Google Drive\IDP - Dispositif Lumineux\PCB\IDP\IDP - CADCAM Top Copper.TXT)
(Date Generated: Friday, 18 April 2014 19:56)

(The Line Grinder software is released under the MIT License. There)
(is no warranty or guarantee that the GCode files it produces)
(are without error. You use it, and run its output code entirely)
(at your own risk. In particular: )

(THE LINE GRINDER SOFTWARE, AND THE OUTPUT CODE IT GENERATES, ARE )
(PROVIDED "AS IS", WITHOUT WARRANTY OF ANY KIND, EXPRESS OR )
(IMPLIED, INCLUDING BUT NOT LIMITED TO THE WARRANTIES OF )
(MERCHANTABILITY, FITNESS FOR A PARTICULAR PURPOSE AND )
(NONINFRINGEMENT. IN NO EVENT SHALL THE AUTHORS OR COPYRIGHT )
(HOLDERS BE LIABLE FOR ANY CLAIM, DAMAGES OR OTHER LIABILITY, )
(WHETHER IN AN ACTION OF CONTRACT, TORT OR OTHERWISE, ARISING )
(FROM, OUT OF OR IN CONNECTION WITH THE SOFTWARE OR ITS OUTPUT)
(OR FROM THE USE OR OTHER DEALINGS IN THE SOFTWARE. )

G20 (Use Inches)
G90 (Set Absolute Coordinates)
G17 (XY plane selection)
G00 Z0.25
G00 X0 Y0
M03 (Start spindle)
G04 P1 (Pause to let the spindle start)
G00 X3.668 Y0.687
G01 Z-0.002 F20
G01 X3.791 Y0.687 F15

G03 X3.9032 Y0.732 I0.047 J0.0452
G01 X3.903 Y0.732

G03 X3.7909 Y0.777 I-0.065 J0.0002
G01 X3.791 Y0.777
G01 X3.668 Y0.777
G01 X3.668 Y0.788
G01 X3.618 Y0.788
G01 X3.618 Y0.77

G03 X3.6182 Y0.6953 I0.0246 J-0.0373
G01 X3.618 Y0.695
G01 X3.618 Y0.678
G01 X3.668 Y0.678
G01 X3.668 Y0.687
G01 Z0.1 F20
G00 X3.354 Y0.688
G01 Z-0.002
G01 X3.494 Y0.688 F15
G01 X3.494 Y0.678
G01 X3.544 Y0.678
G01 X3.544 Y0.695

G03 X3.5642 Y0.733 I-0.025 J0.0377
G01 X3.564 Y0.733

G03 X3.544 Y0.7701 I-0.045 J-0.0003
G01 X3.544 Y0.77
G01 X3.544 Y0.788
G01 X3.494 Y0.788
G01 X3.494 Y0.778
G01 X3.354 Y0.778
G01 X3.354 Y0.779
G01 X3.297 Y0.779
G01 X3.15 Y0.926
G01 Z0.1 F20
G00 X3.353 Y0.381
G01 Z-0.002
G01 X3.353 Y0.509 F15
G01 X3.354 Y0.509
G01 X3.354 Y0.602
G01 X3.262 Y0.602
G01 X3.262 Y0.509
G01 X3.263 Y0.509
G01 X3.263 Y0.381
G01 X3.262 Y0.381
G01 X3.262 Y0.288
G01 X3.354 Y0.288
G01 X3.354 Y0.381
G01 X3.353 Y0.381
G01 Z0.1 F20
G00 X3.251 Y0.688
G01 Z-0.002
G01 X3.262 Y0.688 F15
G01 X3.262 Y0.686
G01 X3.354 Y0.686
G01 X3.354 Y0.688
G01 Z0.1 F20
G00 X3.152 Y0.589
G01 Z-0.002
G01 X3.251 Y0.688 F15
G01 Z0.1 F20
G00 X3.076 Y0.64
G01 Z-0.002
G01 X3.201 Y0.764 F15

G02 X3.228 Y0.777 I0.0317 J-0.0313
G01 Z0.1 F20
G00 X3.152 Y0.508
G01 Z-0.002
G01 X3.152 Y0.589 F15
G01 Z0.1 F20
G00 X3.063 Y0.526
G01 Z-0.002
G01 X3.063 Y0.608 F15

G02 X3.0762 Y0.6397 I0.0446 J0
G01 X3.076 Y0.64
G01 Z0.1 F20
G00 X3.065 Y0.401
G01 Z-0.002
G01 X3.139 Y0.476 F15

G03 X3.1521 Y0.508 I-0.0314 J0.0316
G01 X3.152 Y0.508
G01 Z0.1 F20
G00 X3.014 Y0.478
G01 Z-0.002
G01 X3.063 Y0.526 F15
G01 Z0.1 F20
G00 X2.338 Y0.388
G01 Z-0.002
G01 X3.033 Y0.388 F15

G03 X3.0647 Y0.4014 I-0.0002 J0.0448
G01 X3.065 Y0.401
G01 Z0.1 F20
G00 X2.356 Y0.478
G01 Z-0.002
G01 X3.014 Y0.478 F15
G01 Z0.1 F20
G00 X2.184 Y0.523
G01 Z-0.002
G01 X2.306 Y0.401 F15

G03 X2.338 Y0.3879 I0.0317 J0.0318
G01 X2.338 Y0.388
G01 Z0.1 F20
G00 X2.223 Y0.612
G01 Z-0.002
G01 X2.356 Y0.478 F15
G01 Z0.1 F20
G00 X2.368 Y1.569
G01 Z-0.002
G01 X2.372 Y1.573 F15
G01 X2.403 Y1.573
G01 X2.403 Y1.583
G01 X2.453 Y1.583
G01 X2.453 Y1.583

G03 X2.4671 Y1.5889 I-0.0002 J0.02
G01 X2.467 Y1.589
G01 Z0.1 F20
G00 X2.367 Y1.569
G01 Z-0.002
G01 X2.368 Y1.569 F15
G01 Z0.1 F20
G00 X2.353 Y1.563
G01 Z-0.002
G01 X2.353 Y1.563 F15

G03 X2.367 Y1.5689 I-0.0001 J0.0198
G01 X2.367 Y1.569
G01 Z0.1 F20
G00 X2.281 Y1.563
G01 Z-0.002
G01 X2.353 Y1.563 F15
G01 Z0.1 F20
G00 X2.281 Y1.602
G01 Z-0.002
G01 X2.343 Y1.602 F15
G01 X2.343 Y1.633
G01 X2.403 Y1.633
G01 X2.403 Y1.623
G01 X2.444 Y1.623
G01 X3.069 Y2.247
G01 Z0.1 F20
G00 X2.275 Y1.492
G01 Z-0.002
G01 X2.345 Y1.492 F15

G03 X2.4023 Y1.503 I0.0276 J0.011
G01 X2.402 Y1.503

G03 X2.3453 Y1.5139 I-0.0294 J0
G01 X2.345 Y1.514
G01 X2.281 Y1.514
G01 X2.281 Y1.537
G01 X2.236 Y1.537
G01 X2.236 Y1.492
G01 X2.247 Y1.492
G01 X2.247 Y1.43
G01 X2.236 Y1.43
G01 X2.236 Y1.385
G01 X2.281 Y1.385
G01 X2.281 Y1.43
G01 X2.269 Y1.43
G01 X2.269 Y1.492
G01 X2.275 Y1.492
G01 Z0.1 F20
G00 X2.156 Y1.563
G01 Z-0.002
G01 X2.236 Y1.563 F15
G01 X2.236 Y1.56
G01 X2.281 Y1.56
G01 X2.281 Y1.563
G01 Z0.1 F20
G00 X2.156 Y1.602
G01 Z-0.002
G01 X2.236 Y1.602 F15
G01 X2.236 Y1.605
G01 X2.281 Y1.605
G01 X2.281 Y1.602
G01 Z0.1 F20
G00 X2.758 Y1.463
G01 Z-0.002
G01 X2.785 Y1.463 F15
G01 X2.785 Y1.46
G01 X2.83 Y1.46
G01 X2.83 Y1.463
G01 X2.911 Y1.463
G01 X2.911 Y1.46
G01 X2.956 Y1.46
G01 X2.956 Y1.463
G01 X3.508 Y1.463
G01 X3.508 Y1.463

G03 X3.522 Y1.469 I-0.0001 J0.0198
G01 Z0.1 F20
G00 X2.758 Y1.463
G01 Z-0.002
G01 X2.758 Y1.463 F15

G02 X2.7438 Y1.4688 I-0.0003 J0.0198
G01 X2.744 Y1.469
G01 X2.743 Y1.469
G01 X2.729 Y1.483
G01 X2.695 Y1.483

G02 X2.695 Y1.523 I-0.0221 J0.02
G01 X2.738 Y1.523

G02 X2.7522 Y1.5172 I0 J-0.02
G01 X2.752 Y1.517
G01 X2.766 Y1.503
G01 X2.785 Y1.503
G01 X2.785 Y1.506
G01 X2.83 Y1.506
G01 X2.83 Y1.503
G01 X2.911 Y1.503
G01 X2.911 Y1.506
G01 X2.956 Y1.506
G01 X2.956 Y1.503
G01 X3.499 Y1.503
G01 X3.644 Y1.647
G01 Z0.1 F20
G00 X2.703 Y1.404
G01 Z-0.002
G01 X2.785 Y1.404 F15
G01 X2.785 Y1.392
G01 X2.797 Y1.392
G01 X2.797 Y1.33
G01 X2.785 Y1.33
G01 X2.785 Y1.285
G01 X2.83 Y1.285
G01 X2.83 Y1.33
G01 X2.819 Y1.33
G01 X2.819 Y1.392
G01 X2.83 Y1.392
G01 X2.83 Y1.437
G01 X2.785 Y1.437
G01 X2.785 Y1.426
G01 X2.698 Y1.426

G03 X2.693 Y1.425 I-0.0003 J-0.0113

G03 X2.703 Y1.403 I-0.0201 J-0.0224

G03 X2.703 Y1.404 I-0.0301 J-0.0004
G01 Z0.1 F20
G00 X3.666 Y1.613
G01 Z-0.002
G01 X3.776 Y1.613 F15

G03 X3.903 Y1.633 I0.062 J0.0197

G03 X3.7759 Y1.6521 I-0.065 J-0.0003
G01 X3.776 Y1.652
G01 X3.658 Y1.652

G03 X3.6439 Y1.6461 I-0.0002 J-0.0193
G01 X3.644 Y1.646
G01 Z0.1 F20
G00 X3.522 Y1.469
G01 Z-0.002
G01 X3.666 Y1.613 F15
G01 Z0.1 F20
G00 X1.943 Y1.389
G01 Z-0.002
G01 X1.943 Y2.426 F15

G03 X1.9629 Y2.458 I-0.0152 J0.0316
G01 X1.963 Y2.458
G01 X1.963 Y2.458
G01 X1.963 Y2.508
G01 X1.963 Y2.508

G03 X1.8926 Y2.508 I-0.0352 J0.0001
G01 X1.893 Y2.508
G01 X1.893 Y2.458

G03 X1.9131 Y2.4261 I0.0348 J-0.0004
G01 X1.913 Y2.426
G01 X1.913 Y1.383

G03 X1.9174 Y1.3724 I0.0148 J-0.0001
G01 X1.917 Y1.372
G01 X2.017 Y1.272

G03 X2.028 Y1.2676 I0.0108 J0.0109
G01 X2.028 Y1.268
G01 X2.28 Y1.268

G03 X2.2907 Y1.2723 I0.0002 J0.0149
G01 X2.291 Y1.272
G01 X2.319 Y1.3

G03 X2.323 Y1.31 I-0.011 J0.0102
G01 X2.323 Y1.332
G01 X2.365 Y1.374

G03 X2.4022 Y1.403 I0.0076 J0.0286
G01 X2.402 Y1.403

G03 X2.3442 Y1.395 I-0.0294 J-0.0004
G01 X2.344 Y1.395
G01 X2.297 Y1.349

G03 X2.2923 Y1.338 I0.011 J-0.0111
G01 X2.293 Y1.338
G01 X2.293 Y1.316
G01 X2.274 Y1.298
G01 X2.034 Y1.298
G01 X1.943 Y1.389
G01 Z0.1 F20
G00 X2.498 Y2.541
G01 Z-0.002
G01 X2.498 Y2.667 F15
G01 X2.505 Y2.667
G01 X2.505 Y2.713
G01 X2.46 Y2.713
G01 X2.46 Y2.667
G01 X2.467 Y2.667
G01 X2.467 Y2.536

G03 X2.4529 Y2.508 I0.0207 J-0.0279
G01 X2.453 Y2.508
G01 X2.453 Y2.458

G03 X2.5224 Y2.458 I0.0347 J-0.0004
G01 X2.522 Y2.458
G01 X2.523 Y2.458
G01 X2.523 Y2.508
G01 X2.522 Y2.508

G03 X2.4979 Y2.5408 I-0.0343 J0.0001
G01 X2.498 Y2.541
G01 Z0.1 F20
G00 X2.494 Y2.781
G01 Z-0.002
G01 X2.494 Y2.81 F15
G01 X2.505 Y2.81
G01 X2.505 Y2.855
G01 X2.46 Y2.855
G01 X2.46 Y2.81
G01 X2.472 Y2.81
G01 X2.472 Y2.781
G01 X2.46 Y2.781
G01 X2.46 Y2.735
G01 X2.505 Y2.735
G01 X2.505 Y2.781
G01 X2.494 Y2.781
G01 Z0.1 F20
G00 X2.194 Y2.774
G01 Z-0.002
G01 X2.194 Y2.81 F15
G01 X2.205 Y2.81
G01 X2.205 Y2.855
G01 X2.161 Y2.855
G01 X2.161 Y2.81
G01 X2.172 Y2.81
G01 X2.172 Y2.774
G01 X2.161 Y2.774
G01 X2.161 Y2.728
G01 X2.205 Y2.728
G01 X2.205 Y2.774
G01 X2.194 Y2.774
G01 Z0.1 F20
G00 X2.198 Y2.541
G01 Z-0.002
G01 X2.198 Y2.66 F15
G01 X2.205 Y2.66
G01 X2.205 Y2.705
G01 X2.161 Y2.705
G01 X2.161 Y2.66
G01 X2.168 Y2.66
G01 X2.168 Y2.536

G03 X2.1536 Y2.508 I0.0198 J-0.0279
G01 X2.153 Y2.508
G01 X2.153 Y2.458

G03 X2.2226 Y2.458 I0.0348 J-0.0004
G01 X2.223 Y2.458
G01 X2.223 Y2.458
G01 X2.223 Y2.508
G01 X2.223 Y2.508

G03 X2.1982 Y2.5417 I-0.0352 J0.0001
G01 X2.198 Y2.541
G01 Z0.1 F20
G00 X3.333 Y2.213
G01 Z-0.002
G01 X3.776 Y2.213 F15

G03 X3.9031 Y2.233 I0.062 J0.0199
G01 X3.903 Y2.233

G03 X3.7762 Y2.253 I-0.065 J-0.0001
G01 X3.776 Y2.253
G01 X3.333 Y2.253
G01 X3.083 Y2.253

G03 X3.0688 Y2.2473 I-0.0002 J-0.0201
G01 X3.069 Y2.247
G01 Z0.1 F20
G00 X3.333 Y2.213
G01 Z-0.002
G01 X3.333 Y2.213 F15
G01 Z0.1 F20
G00 X3.091 Y2.213
G01 Z-0.002
G01 X3.333 Y2.213 F15
G01 Z0.1 F20
G00 X2.467 Y1.589
G01 Z-0.002
G01 X3.091 Y2.213 F15
G01 Z0.1 F20
G00 X2.764 Y1.608
G01 Z-0.002
G01 X2.765 Y1.608 F15
G01 X2.765 Y1.645
G01 X2.764 Y1.645

G03 X2.7567 Y1.6627 I-0.0244 J0.0004
G01 X2.757 Y1.663
G01 Z0.1 F20
G00 X2.715 Y1.633
G01 Z-0.002
G01 X2.715 Y1.635 F15
G01 X2.692 Y1.657
G01 X2.643 Y1.657
G01 X2.508 Y1.523
G01 X2.508 Y1.243
G01 X2.818 Y0.933
G01 X3.133 Y0.933

G02 X3.1506 Y0.9256 I-0.0002 J-0.0251
G01 X3.15 Y0.925
G01 Z0.1 F20
G00 X2.72 Y1.7
G01 Z-0.002
G01 X2.757 Y1.663 F15
G01 Z0.1 F20
G00 X2.633 Y1.707
G01 Z-0.002
G01 X2.702 Y1.707 F15

G02 X2.7196 Y1.6997 I0.0002 J-0.0243
G01 X2.72 Y1.7
G01 Z0.1 F20
G00 X2.465 Y1.55
G01 Z-0.002
G01 X2.615 Y1.7 F15
G01 Z0.1 F20
G00 X2.458 Y1.233
G01 Z-0.002
G01 X2.458 Y1.533 F15

G02 X2.465 Y1.55 I0.0246 J-0.0002
G01 Z0.1 F20
G00 X2.465 Y1.215
G01 Z-0.002
G01 X2.79 Y0.89 F15
G01 Z0.1 F20
G00 X2.808 Y0.883
G01 Z-0.002
G01 X2.808 Y0.883 F15

G02 X2.7897 Y0.8907 I-0.0003 J0.0249
G01 X2.79 Y0.891
G01 Z0.1 F20
G00 X2.808 Y0.883
G01 Z-0.002
G01 X3.123 Y0.883 F15
G01 X3.228 Y0.778
G01 Z0.1 F20
G00 X2.403 Y2.064
G01 Z-0.002
G01 X2.403 Y2.426 F15

G03 X2.4228 Y2.458 I-0.0153 J0.0316
G01 X2.423 Y2.458
G01 X2.423 Y2.458
G01 X2.423 Y2.508
G01 X2.423 Y2.508

G03 X2.3524 Y2.508 I-0.0353 J0.0001
G01 X2.353 Y2.508
G01 X2.353 Y2.458

G03 X2.3731 Y2.4261 I0.0347 J-0.0004
G01 X2.373 Y2.426
G01 X2.373 Y2.058

G03 X2.3774 Y2.0473 I0.0147 J-0.0002
G01 X2.377 Y2.047
G01 X2.529 Y1.895

G03 X2.5875 Y1.888 I0.0288 J-0.0073
G01 X2.588 Y1.888

G03 X2.5498 Y1.9168 I-0.0302 J-0.0003
G01 X2.55 Y1.916
G01 X2.403 Y2.064
G01 Z0.1 F20
G00 X2.584 Y1.287
G01 Z-0.002
G01 X2.647 Y1.287 F15

G03 X2.7032 Y1.303 I0.0259 J0.0156
G01 X2.703 Y1.303

G03 X2.6471 Y1.318 I-0.0301 J-0.0004
G01 X2.647 Y1.318
G01 X2.584 Y1.318

G03 X2.5839 Y1.2871 I-0.0262 J-0.0154
G01 X2.584 Y1.287
G01 Z0.1 F20
G00 X2.74 Y1.583
G01 Z-0.002
G01 X2.74 Y1.583 F15

G03 X2.749 Y1.5849 I-0.0004 J0.025
G01 X2.749 Y1.585
G01 X2.762 Y1.585
G01 X2.762 Y1.598

G03 X2.7641 Y1.608 I-0.0224 J0.01
G01 X2.764 Y1.608
G01 Z0.1 F20
G00 X2.699 Y1.583
G01 Z-0.002
G01 X2.74 Y1.583 F15
G01 Z0.1 F20
G00 X2.698 Y1.633
G01 Z-0.002
G01 X2.715 Y1.633 F15
G01 Z0.1 F20
G00 X2.693 Y1.581
G01 Z-0.002
G01 X2.699 Y1.583 F15
G01 Z0.1 F20
G00 X2.684 Y1.631
G01 Z-0.002
G01 X2.693 Y1.632 F15

G02 X2.698 Y1.6325 I0.0047 J-0.024
G01 X2.698 Y1.633
G01 Z0.1 F20
G00 X0.027 Y0.04
G01 Z-0.002
G01 X0.027 Y3.11 F15

G02 X0.037 Y3.1202 I0.0099 J0.0003
G01 X0.037 Y3.12
G01 X4.171 Y3.12

G02 X4.1804 Y3.11 I-0.0003 J-0.0097
G01 X4.181 Y3.11
G01 X4.181 Y0.04

G02 X4.171 Y0.0293 I-0.0103 J-0.0004
G01 X4.171 Y0.03
G01 X0.037 Y0.03

G02 X0.0273 Y0.04 I-0.0001 J0.0096
G01 X0.027 Y0.04
G01 Z0.1 F20
G00 X2.535 Y2.637
G01 Z-0.002
G01 X2.535 Y2.838 F15
G01 X2.535 Y2.891
G01 X2.505 Y2.891
G01 X2.505 Y2.878
G01 X2.46 Y2.878
G01 X2.46 Y2.891
G01 X2.431 Y2.891
G01 X2.431 Y2.637

G02 X2.438 Y2.627 I-0.0034 J-0.0098
G01 X2.438 Y2.578

G02 X2.428 Y2.5673 I-0.0104 J-0.0003
G01 X2.428 Y2.568
G01 X2.238 Y2.568

G02 X2.2281 Y2.578 I-0.0002 J0.0097
G01 X2.228 Y2.578
G01 X2.228 Y2.62

G02 X2.2351 Y2.6296 I0.0098 J0.0001
G01 X2.235 Y2.63
G01 X2.235 Y2.891
G01 X2.205 Y2.891
G01 X2.205 Y2.878
G01 X2.161 Y2.878
G01 X2.161 Y2.891
G01 X2.13 Y2.891
G01 X2.13 Y2.63

G02 X2.1379 Y2.62 I-0.0023 J-0.0099
G01 X2.138 Y2.62
G01 X2.138 Y2.578

G02 X2.1281 Y2.5674 I-0.0103 J-0.0003
G01 X2.128 Y2.568
G01 X2.123 Y2.568
G01 X2.123 Y2.398
G01 X2.333 Y2.398

G02 X2.3428 Y2.388 I-0.0003 J-0.0101
G01 X2.343 Y2.388
G01 X2.343 Y2.039
G01 X2.495 Y1.887

G02 X2.4977 Y1.88 I-0.0073 J-0.0069
G01 X2.498 Y1.88
G01 X2.498 Y1.863
G01 X2.533 Y1.828
G01 X2.583 Y1.828

G02 X2.5931 Y1.818 I0.0001 J-0.01
G01 X2.593 Y1.818

G02 X2.59 Y1.811 I-0.0099 J0
G01 X2.445 Y1.666

G02 X2.438 Y1.6632 I-0.0068 J0.0066
G01 X2.438 Y1.663
G01 X2.313 Y1.663
G01 X2.313 Y1.645

G02 X2.303 Y1.6353 I-0.0101 J0.0004
G01 X2.303 Y1.635
G01 X2.202 Y1.635

G02 X2.1889 Y1.6349 I-0.0066 J0.0078
G01 X2.189 Y1.635
G01 X2.08 Y1.635
G01 X2.08 Y1.525
G01 X2.111 Y1.525
G01 X2.111 Y1.537
G01 X2.156 Y1.537
G01 X2.156 Y1.525
G01 X2.185 Y1.525

G02 X2.206 Y1.523 I0.0104 J-0.0023
G01 X2.205 Y1.523
G01 X2.205 Y1.35
G01 X2.236 Y1.35
G01 X2.236 Y1.363
G01 X2.281 Y1.363
G01 X2.281 Y1.317
G01 X2.236 Y1.317
G01 X2.236 Y1.33
G01 X2.201 Y1.33

G02 X2.195 Y1.3283 I-0.0056 J0.0079
G01 X2.195 Y1.328
G01 X2.051 Y1.328

G02 X2.0432 Y1.3312 I-0.0005 J0.0099
G01 X2.043 Y1.331
G01 X1.976 Y1.399

G02 X1.9733 Y1.406 I0.0069 J0.0066
G01 X1.973 Y1.406
G01 X1.973 Y2.388

G02 X1.983 Y2.3978 I0.0099 J-0.0001
G01 X1.983 Y2.398
G01 X2.093 Y2.398
G01 X2.093 Y2.568
G01 X1.438 Y2.568
G01 X1.438 Y2.541

G02 X1.4621 Y2.508 I-0.0104 J-0.0329
G01 X1.462 Y2.508
G01 X1.463 Y2.508
G01 X1.463 Y2.458
G01 X1.462 Y2.458

G02 X1.4378 Y2.4247 I-0.0344 J-0.0004
G01 X1.438 Y2.424
G01 X1.438 Y2.398
G01 X1.873 Y2.398

G02 X1.8829 Y2.388 I-0.0002 J-0.0101
G01 X1.883 Y2.388
G01 X1.883 Y1.364
G01 X2.009 Y1.238
G01 X2.299 Y1.238
G01 X2.319 Y1.258

G02 X2.3331 Y1.2581 I0.0071 J-0.0074
G01 X2.333 Y1.258
G01 X2.348 Y1.243
G01 X2.362 Y1.243
G01 X2.362 Y1.274

G02 X2.4031 Y1.303 I0.0106 J0.0286
G01 X2.402 Y1.303

G02 X2.3826 Y1.275 I-0.0294 J-0.0004
G01 X2.383 Y1.274
G01 X2.383 Y1.243
G01 X2.398 Y1.243
G01 X2.411 Y1.256

G02 X2.4282 Y1.249 I0.007 J-0.0074
G01 X2.428 Y1.249
G01 X2.428 Y1.21
G01 X2.785 Y0.853
G01 X2.899 Y0.853

G02 X2.9094 Y0.8431 I0.0001 J-0.0103
G01 X2.909 Y0.843

G02 X2.9062 Y0.8358 I-0.0099 J-0.0003
G01 X2.906 Y0.836
G01 X2.893 Y0.822
G01 X2.893 Y0.743
G01 X2.949 Y0.688
G01 X2.963 Y0.688
G01 X3.027 Y0.688
G01 X3.083 Y0.743
G01 X3.083 Y0.822
G01 X3.069 Y0.836

G02 X3.076 Y0.8526 I0.0073 J0.0067
G01 X3.076 Y0.853
G01 X3.106 Y0.853

G02 X3.1132 Y0.8502 I0 J-0.0103
G01 X3.113 Y0.85
G01 X3.171 Y0.792

G02 X3.1741 Y0.785 I-0.0069 J-0.0073
G01 X3.174 Y0.785

G02 X3.1712 Y0.7778 I-0.0099 J-0.0003
G01 X3.171 Y0.778
G01 X3.033 Y0.639
G01 X3.033 Y0.543

G02 X3.0302 Y0.5358 I-0.0103 J-0.0001
G01 X3.03 Y0.536
G01 X3.005 Y0.511

G02 X2.998 Y0.5076 I-0.0075 J0.0067
G01 X2.998 Y0.508
G01 X2.963 Y0.508

G02 X2.953 Y0.518 I-0.0003 J0.0097
G01 X2.953 Y0.668
G01 X2.323 Y0.668
G01 X2.323 Y0.578

G02 X2.306 Y0.5711 I-0.01 J0.0002
G01 X2.306 Y0.571
G01 X2.256 Y0.621

G02 X2.253 Y0.628 I0.007 J0.0072
G01 X2.253 Y0.668
G01 X2.098 Y0.668
G01 X2.098 Y0.641

G02 X2.1224 Y0.608 I-0.0101 J-0.033
G01 X2.123 Y0.608
G01 X2.123 Y0.608
G01 X2.123 Y0.558
G01 X2.123 Y0.558

G02 X2.098 Y0.5239 I-0.0351 J-0.0005
G01 X2.098 Y0.524
G01 X2.098 Y0.498
G01 X2.163 Y0.498

G02 X2.1699 Y0.4949 I-0.0004 J-0.0101
G01 X2.17 Y0.495
G01 X2.306 Y0.358
G01 X3.064 Y0.358
G01 X3.183 Y0.477
G01 X3.183 Y0.573

G02 X3.1861 Y0.5799 I0.0099 J-0.0003
G01 X3.186 Y0.58
G01 X3.214 Y0.608

G02 X3.2312 Y0.601 I0.0071 J-0.0071
G01 X3.231 Y0.601
G01 X3.231 Y0.474

G02 X3.2323 Y0.469 I-0.0084 J-0.0048
G01 X3.233 Y0.469
G01 X3.233 Y0.422

G02 X3.2317 Y0.4167 I-0.0104 J-0.0003
G01 X3.231 Y0.417
G01 X3.231 Y0.259
G01 X3.384 Y0.259
G01 X3.384 Y0.417

G02 X3.3828 Y0.422 I0.0088 J0.0047
G01 X3.383 Y0.422
G01 X3.383 Y0.469

G02 X3.3842 Y0.4739 I0.0098 J0.0002
G01 X3.384 Y0.474
G01 X3.384 Y0.632
G01 X3.263 Y0.632

G02 X3.2548 Y0.6492 I-0.0005 J0.0103
G01 X3.255 Y0.649
G01 X3.259 Y0.653

G02 X3.267 Y0.6564 I0.0076 J-0.0066
G01 X3.267 Y0.656
G01 X3.389 Y0.656

G02 X3.394 Y0.6576 I0.0053 J-0.0081
G01 X3.394 Y0.658
G01 X3.454 Y0.658

G02 X3.4639 Y0.648 I-0.0002 J-0.0101
G01 X3.464 Y0.648
G01 X3.698 Y0.648

G02 X3.708 Y0.6572 I0.0098 J-0.0006
G01 X3.708 Y0.657
G01 X3.754 Y0.657

G02 X3.7633 Y0.647 I-0.0003 J-0.0096
G01 X3.764 Y0.647

G02 X3.7609 Y0.64 I-0.0103 J0.0004
G01 X3.761 Y0.64
G01 X3.743 Y0.622
G01 X3.743 Y0.593
G01 X3.774 Y0.593

G02 X3.902 Y0.593 I0.064 J-0.0102
G01 X3.933 Y0.593
G01 X3.933 Y0.622
G01 X3.905 Y0.65

G02 X3.905 Y0.665 I0.0067 J0.0075
G01 X3.933 Y0.693
G01 X3.933 Y0.772
G01 X3.877 Y0.827
G01 X3.798 Y0.827
G01 X3.781 Y0.81

G02 X3.774 Y0.8075 I-0.0066 J0.0075
G01 X3.774 Y0.807
G01 X3.708 Y0.807

G02 X3.6973 Y0.818 I-0.0002 J0.0105
G01 X3.698 Y0.818
G01 X3.464 Y0.818

G02 X3.454 Y0.8078 I-0.0102 J0
G01 X3.454 Y0.808
G01 X3.394 Y0.808

G02 X3.3892 Y0.8094 I0.0003 J0.01
G01 X3.389 Y0.809
G01 X3.313 Y0.809

G02 X3.3058 Y0.8118 I0 J0.0105
G01 X3.306 Y0.812
G01 X3.156 Y0.963
G01 X2.834 Y0.963

G02 X2.8271 Y0.9661 I0.0005 J0.01
G01 X2.827 Y0.966
G01 X2.567 Y1.226

G02 X2.574 Y1.2431 I0.0075 J0.0069
G01 X2.574 Y1.243
G01 X2.583 Y1.243
G01 X2.595 Y1.255

G02 X2.602 Y1.2576 I0.0067 J-0.0074
G01 X2.602 Y1.258
G01 X2.629 Y1.258

G02 X2.6362 Y1.2551 I0 J-0.0104
G01 X2.636 Y1.255
G01 X2.648 Y1.243
G01 X2.698 Y1.243
G01 X2.732 Y1.278
G01 X2.732 Y1.328
G01 X2.715 Y1.346

G02 X2.7154 Y1.3596 I0.0069 J0.0066
G01 X2.715 Y1.36
G01 X2.726 Y1.371

G02 X2.733 Y1.374 I0.007 J-0.0073
G01 X2.745 Y1.374

G02 X2.7554 Y1.364 I0.0001 J-0.0103
G01 X2.755 Y1.364
G01 X2.755 Y1.25
G01 X2.785 Y1.25
G01 X2.785 Y1.263
G01 X2.83 Y1.263
G01 X2.83 Y1.25
G01 X2.86 Y1.25
G01 X2.86 Y1.352
G01 X2.86 Y1.423

G02 X2.8803 Y1.425 I0.0103 J-0.0002
G01 X2.88 Y1.425
G01 X2.911 Y1.425
G01 X2.911 Y1.437
G01 X2.956 Y1.437
G01 X2.956 Y1.425
G01 X2.985 Y1.425

G02 X2.995 Y1.4335 I0.0105 J-0.0022
G01 X2.995 Y1.433
G01 X3.529 Y1.433
G01 X3.675 Y1.58

G02 X3.683 Y1.5831 I0.0075 J-0.0073
G01 X3.683 Y1.583
G01 X3.749 Y1.583

G02 X3.7562 Y1.5802 I0.0001 J-0.0103
G01 X3.756 Y1.58
G01 X3.771 Y1.565

G02 X3.774 Y1.558 I-0.0067 J-0.007

G02 X3.771 Y1.551 I-0.0097 J0
G01 X3.743 Y1.523
G01 X3.743 Y1.493
G01 X3.774 Y1.493

G02 X3.902 Y1.493 I0.064 J-0.0097
G01 X3.933 Y1.493
G01 X3.933 Y1.523
G01 X3.905 Y1.551

G02 X3.905 Y1.565 I0.0067 J0.007
G01 X3.933 Y1.593
G01 X3.933 Y1.672
G01 X3.877 Y1.728
G01 X3.798 Y1.728
G01 X3.756 Y1.686

G02 X3.7491 Y1.6831 I-0.0069 J0.0068
G01 X3.749 Y1.683
G01 X3.637 Y1.683
G01 X3.49 Y1.536

G02 X3.483 Y1.5331 I-0.0069 J0.0069
G01 X3.483 Y1.533
G01 X2.995 Y1.533

G02 X2.9892 Y1.5352 I0.0005 J0.0099
G01 X2.989 Y1.535
G01 X2.877 Y1.535

G02 X2.8638 Y1.5348 I-0.0067 J0.0079
G01 X2.864 Y1.535
G01 X2.78 Y1.535

G02 X2.77 Y1.545 I0.0004 J0.0104
G01 Z0.1 F20
G00 X2.528 Y2.578
G01 Z-0.002
G01 X2.528 Y2.627 F15

G02 X2.5352 Y2.6365 I0.0096 J0.0002
G01 X2.535 Y2.637
G01 Z0.1 F20
G00 X2.538 Y2.568
G01 Z-0.002
G01 X2.953 Y2.568 F15
G01 X2.953 Y2.398
G01 X2.443 Y2.398

G03 X2.4326 Y2.388 I-0.0003 J-0.0101
G01 X2.433 Y2.388
G01 X2.433 Y2.08

G03 X2.4363 Y2.0733 I0.0097 J0.0005
G01 X2.436 Y2.073
G01 X2.558 Y1.951

G03 X2.565 Y1.9478 I0.0074 J0.0068
G01 X2.565 Y1.948
G01 X2.583 Y1.948
G01 X2.618 Y1.913
G01 X2.618 Y1.863

G03 X2.6351 Y1.8559 I0.01 J-0.0001
G01 X2.635 Y1.856
G01 X3.062 Y2.283
G01 X3.749 Y2.283

G03 X3.7562 Y2.2859 I0.0001 J0.01
G01 X3.756 Y2.286
G01 X3.798 Y2.328
G01 X3.877 Y2.328
G01 X3.933 Y2.272
G01 X3.933 Y2.194
G01 X3.905 Y2.165

G03 X3.9052 Y2.1512 I0.0067 J-0.0068
G01 X3.905 Y2.151
G01 X3.933 Y2.123
G01 X3.933 Y2.093
G01 X3.902 Y2.093

G03 X3.774 Y2.093 I-0.064 J-0.01
G01 X3.743 Y2.093
G01 X3.743 Y2.123
G01 X3.771 Y2.151

G03 X3.7741 Y2.158 I-0.0067 J0.0072
G01 X3.774 Y2.158

G03 X3.7711 Y2.1651 I-0.0097 J0.0002
G01 X3.771 Y2.165
G01 X3.756 Y2.18

G03 X3.7491 Y2.1828 I-0.0069 J-0.0071
G01 X3.749 Y2.183
G01 X3.108 Y2.183

G03 X3.1002 Y2.1798 I-0.0004 J-0.0101
G01 X3.1 Y2.18
G01 X2.675 Y1.755

G03 X2.683 Y1.7375 I0.0075 J-0.0072
G01 X2.683 Y1.738
G01 X2.725 Y1.738
G01 X2.795 Y1.668

G03 X2.7979 Y1.6629 I0.0097 J0.0021
G01 X2.798 Y1.663
G01 X2.798 Y1.631
G01 X2.785 Y1.631
G01 X2.785 Y1.585
G01 X2.798 Y1.585
G01 X2.798 Y1.556
G01 X2.78 Y1.556

G03 X2.7698 Y1.545 I0.0004 J-0.0106
G01 X2.77 Y1.545
G01 Z0.1 F20
G00 X3.933 Y2.044
G01 Z-0.002
G01 X3.933 Y2.073 F15
G01 X3.902 Y2.073

G02 X3.848 Y2.019 I-0.064 J0.01
G01 X3.848 Y1.988
G01 X3.877 Y1.988
G01 X3.933 Y2.044
G01 Z0.1 F20
G00 X3.798 Y1.988
G01 Z-0.002
G01 X3.828 Y1.988 F15
G01 X3.828 Y2.019

G02 X3.774 Y2.073 I0.01 J0.064
G01 X3.743 Y2.073
G01 X3.743 Y2.044
G01 X3.798 Y1.988
G01 Z0.1 F20
G00 X2.818 Y1.66
G01 Z-0.002
G01 X2.86 Y1.66 F15
G01 X2.86 Y1.618
G01 X2.83 Y1.618
G01 X2.83 Y1.631
G01 X2.818 Y1.631
G01 X2.818 Y1.66
G01 Z0.1 F20
G00 X2.86 Y1.556
G01 Z-0.002
G01 X2.86 Y1.598 F15
G01 X2.83 Y1.598
G01 X2.83 Y1.585
G01 X2.818 Y1.585
G01 X2.818 Y1.556
G01 X2.86 Y1.556
G01 Z0.1 F20
G00 X3.933 Y1.444
G01 Z-0.002
G01 X3.933 Y1.473 F15
G01 X3.902 Y1.473

G02 X3.848 Y1.4193 I-0.064 J0.0103
G01 X3.848 Y1.419
G01 X3.848 Y1.388
G01 X3.877 Y1.388
G01 X3.933 Y1.444
G01 Z0.1 F20
G00 X3.798 Y1.388
G01 Z-0.002
G01 X3.828 Y1.388 F15
G01 X3.828 Y1.419

G02 X3.7737 Y1.473 I0.01 J0.0643
G01 X3.774 Y1.473
G01 X3.743 Y1.473
G01 X3.743 Y1.444
G01 X3.798 Y1.388
G01 Z0.1 F20
G00 X2.985 Y1.362
G01 Z-0.002
G01 X2.985 Y1.405 F15
G01 X2.956 Y1.405
G01 X2.956 Y1.392
G01 X2.943 Y1.392
G01 X2.943 Y1.362
G01 X2.985 Y1.362
G01 Z0.1 F20
G00 X2.88 Y1.362
G01 Z-0.002
G01 X2.923 Y1.362 F15
G01 X2.923 Y1.392
G01 X2.911 Y1.392
G01 X2.911 Y1.405
G01 X2.88 Y1.405
G01 X2.88 Y1.362
G01 Z0.1 F20
G00 X2.86 Y1.188
G01 Z-0.002
G01 X2.86 Y1.23 F15
G01 X2.83 Y1.23
G01 X2.83 Y1.217
G01 X2.818 Y1.217
G01 X2.818 Y1.188
G01 X2.86 Y1.188
G01 Z0.1 F20
G00 X2.755 Y1.188
G01 Z-0.002
G01 X2.798 Y1.188 F15
G01 X2.798 Y1.217
G01 X2.785 Y1.217
G01 X2.785 Y1.23
G01 X2.755 Y1.23
G01 X2.755 Y1.188
G01 Z0.1 F20
G00 X3.933 Y0.543
G01 Z-0.002
G01 X3.933 Y0.573 F15
G01 X3.902 Y0.573

G02 X3.848 Y0.5188 I-0.064 J0.0098
G01 X3.848 Y0.519
G01 X3.848 Y0.488
G01 X3.877 Y0.488
G01 X3.933 Y0.543
G01 Z0.1 F20
G00 X3.798 Y0.488
G01 Z-0.002
G01 X3.828 Y0.488 F15
G01 X3.828 Y0.519

G02 X3.7742 Y0.573 I0.01 J0.0638
G01 X3.774 Y0.573
G01 X3.743 Y0.573
G01 X3.743 Y0.543
G01 X3.798 Y0.488
G01 Z0.1 F20
G00 X1.423 Y0.498
G01 Z-0.002
G01 X1.978 Y0.498 F15
G01 X1.978 Y0.524

G02 X1.953 Y0.558 I0.0099 J0.0335
G01 X1.953 Y0.608

G02 X1.9779 Y0.6414 I0.0349 J0
G01 X1.978 Y0.641
G01 X1.978 Y0.668
G01 X1.423 Y0.668
G01 X1.423 Y0.498
G01 Z0.1 F20
G00 X1.998 Y0.498
G01 Z-0.002
G01 X2.078 Y0.498 F15
G01 X2.078 Y0.524

G02 X2.0529 Y0.558 I0.0099 J0.0335
G01 X2.053 Y0.558
G01 X2.053 Y0.608

G02 X2.0778 Y0.6414 I0.0349 J0
G01 X2.078 Y0.641
G01 X2.078 Y0.668
G01 X1.998 Y0.668
G01 X1.998 Y0.641

G02 X2.0224 Y0.608 I-0.0101 J-0.033
G01 X2.023 Y0.608
G01 X2.023 Y0.608
G01 X2.023 Y0.558
G01 X2.023 Y0.558

G02 X1.9981 Y0.5239 I-0.0351 J-0.0005
G01 X1.998 Y0.524
G01 X1.998 Y0.498
G01 Z0.1 F20
G00 X1.063 Y2.398
G01 Z-0.002
G01 X1.417 Y2.398 F15
G01 X1.417 Y2.424

G02 X1.3924 Y2.458 I0.0106 J0.0336
G01 X1.393 Y2.458
G01 X1.393 Y2.508

G02 X1.417 Y2.541 I0.0346 J0.0001
G01 X1.417 Y2.568
G01 X1.063 Y2.568
G01 X1.063 Y2.566

G02 X1.046 Y2.559 I-0.01 J0.0001
G01 X1.027 Y2.578
G01 X0.949 Y2.578
G01 X0.893 Y2.522
G01 X0.893 Y2.443
G01 X0.949 Y2.388
G01 X1.027 Y2.388
G01 X1.046 Y2.407

G02 X1.0633 Y2.4 I0.007 J-0.0075
G01 X1.063 Y2.4
G01 X1.063 Y2.398
G01 Z0.1 F20
G00 X2.185 Y1.463
G01 Z-0.002
G01 X2.185 Y1.505 F15
G01 X2.156 Y1.505
G01 X2.156 Y1.492
G01 X2.143 Y1.492
G01 X2.143 Y1.463
G01 X2.185 Y1.463
G01 Z0.1 F20
G00 X2.08 Y1.463
G01 Z-0.002
G01 X2.123 Y1.463 F15
G01 X2.123 Y1.492
G01 X2.111 Y1.492
G01 X2.111 Y1.505
G01 X2.08 Y1.505
G01 X2.08 Y1.463
G01 Z0.1 F20
G00 X2.13 Y2.911
G01 Z-0.002
G01 X2.13 Y2.953 F15
G01 X2.173 Y2.953
G01 X2.173 Y2.924
G01 X2.161 Y2.924
G01 X2.161 Y2.911
G01 X2.13 Y2.911
G01 Z0.1 F20
G00 X2.193 Y2.953
G01 Z-0.002
G01 X2.235 Y2.953 F15
G01 X2.235 Y2.911
G01 X2.205 Y2.911
G01 X2.205 Y2.924
G01 X2.193 Y2.924
G01 X2.193 Y2.953
G01 Z0.1 F20
G00 X2.431 Y2.911
G01 Z-0.002
G01 X2.431 Y2.953 F15
G01 X2.473 Y2.953
G01 X2.473 Y2.924
G01 X2.46 Y2.924
G01 X2.46 Y2.911
G01 X2.431 Y2.911
G01 Z0.1 F20
G00 X2.493 Y2.953
G01 Z-0.002
G01 X2.535 Y2.953 F15
G01 X2.535 Y2.911
G01 X2.505 Y2.911
G01 X2.505 Y2.924
G01 X2.493 Y2.924
G01 X2.493 Y2.953
G01 Z0.1 F20
G00 X2.949 Y1.788
G01 Z-0.002
G01 X3.027 Y1.788 F15
G01 X3.083 Y1.843
G01 X3.083 Y1.922
G01 X3.027 Y1.978
G01 X2.949 Y1.978
G01 X2.893 Y1.922
G01 X2.893 Y1.843
G01 X2.949 Y1.788
G01 Z0.1 F20
G00 X0.899 Y0.488
G01 Z-0.002
G01 X0.977 Y0.488 F15
G01 X1.033 Y0.543
G01 X1.033 Y0.622
G01 X0.977 Y0.678
G01 X0.899 Y0.678
G01 X0.843 Y0.622
G01 X0.843 Y0.543
G01 X0.899 Y0.488
G01 Z0.1 F20
G00 X3.231 Y0.082
G01 Z-0.002
G01 X3.298 Y0.082 F15
G01 X3.298 Y0.111
G01 X3.262 Y0.111
G01 X3.262 Y0.148
G01 X3.231 Y0.148
G01 X3.231 Y0.082
G01 Z0.1 F20
G00 X3.318 Y0.082
G01 Z-0.002
G01 X3.384 Y0.082 F15
G01 X3.384 Y0.148
G01 X3.354 Y0.148
G01 X3.354 Y0.111
G01 X3.318 Y0.111
G01 X3.318 Y0.082
G01 Z0.1 F20
G00 X3.384 Y0.168
G01 Z-0.002
G01 X3.384 Y0.234 F15
G01 X3.318 Y0.234
G01 X3.318 Y0.204
G01 X3.354 Y0.204
G01 X3.354 Y0.168
G01 X3.384 Y0.168
G01 Z0.1 F20
G00 X3.231 Y0.234
G01 Z-0.002
G01 X3.298 Y0.234 F15
G01 X3.298 Y0.204
G01 X3.262 Y0.204
G01 X3.262 Y0.168
G01 X3.231 Y0.168
G01 X3.231 Y0.234
G01 Z0.1 F20
G00 X2.923 Y2.458
G01 Z-0.002
G01 X2.923 Y2.458 F15
G01 X2.923 Y2.508
G01 X2.923 Y2.508

G03 X2.853 Y2.508 I-0.035 J0.0001
G01 X2.853 Y2.458

G03 X2.923 Y2.458 I0.035 J-0.0004
G01 Z0.1 F20
G00 X2.823 Y2.458
G01 Z-0.002
G01 X2.823 Y2.458 F15
G01 X2.823 Y2.508
G01 X2.823 Y2.508

G03 X2.753 Y2.508 I-0.035 J0.0001
G01 X2.753 Y2.458

G03 X2.823 Y2.458 I0.035 J-0.0004
G01 Z0.1 F20
G00 X2.722 Y2.458
G01 Z-0.002
G01 X2.723 Y2.458 F15
G01 X2.723 Y2.508
G01 X2.722 Y2.508

G03 X2.6532 Y2.508 I-0.0344 J0.0001
G01 X2.653 Y2.508
G01 X2.653 Y2.458

G03 X2.7222 Y2.458 I0.0346 J-0.0004
G01 X2.722 Y2.458
G01 Z0.1 F20
G00 X2.622 Y2.458
G01 Z-0.002
G01 X2.623 Y2.458 F15
G01 X2.623 Y2.508
G01 X2.622 Y2.508

G03 X2.5532 Y2.508 I-0.0344 J0.0001
G01 X2.553 Y2.508
G01 X2.553 Y2.458

G03 X2.6222 Y2.458 I0.0346 J-0.0004
G01 X2.622 Y2.458
G01 Z0.1 F20
G00 X2.323 Y2.458
G01 Z-0.002
G01 X2.323 Y2.458 F15
G01 X2.323 Y2.508
G01 X2.323 Y2.508

G03 X2.2526 Y2.508 I-0.0352 J0.0001
G01 X2.253 Y2.508
G01 X2.253 Y2.458

G03 X2.3226 Y2.458 I0.0348 J-0.0004
G01 X2.323 Y2.458
G01 Z0.1 F20
G00 X2.063 Y2.458
G01 Z-0.002
G01 X2.063 Y2.458 F15
G01 X2.063 Y2.508
G01 X2.063 Y2.508

G03 X1.9926 Y2.508 I-0.0352 J0.0001
G01 X1.993 Y2.508
G01 X1.993 Y2.458

G03 X2.0626 Y2.458 I0.0348 J-0.0004
G01 X2.063 Y2.458
G01 Z0.1 F20
G00 X1.863 Y2.458
G01 Z-0.002
G01 X1.863 Y2.458 F15
G01 X1.863 Y2.508
G01 X1.863 Y2.508

G03 X1.7928 Y2.508 I-0.0351 J0.0001
G01 X1.793 Y2.508
G01 X1.793 Y2.458

G03 X1.8628 Y2.458 I0.0349 J-0.0004
G01 X1.863 Y2.458
G01 Z0.1 F20
G00 X1.763 Y2.458
G01 Z-0.002
G01 X1.763 Y2.458 F15
G01 X1.763 Y2.508
G01 X1.763 Y2.508

G03 X1.6928 Y2.508 I-0.0351 J0.0001
G01 X1.693 Y2.508
G01 X1.693 Y2.458

G03 X1.7628 Y2.458 I0.0349 J-0.0004
G01 X1.763 Y2.458
G01 Z0.1 F20
G00 X1.663 Y2.458
G01 Z-0.002
G01 X1.663 Y2.458 F15
G01 X1.663 Y2.508
G01 X1.663 Y2.508

G03 X1.593 Y2.508 I-0.035 J0.0001
G01 X1.593 Y2.458

G03 X1.663 Y2.458 I0.035 J-0.0004
G01 Z0.1 F20
G00 X1.563 Y2.458
G01 Z-0.002
G01 X1.563 Y2.458 F15
G01 X1.563 Y2.508
G01 X1.563 Y2.508

G03 X1.493 Y2.508 I-0.035 J0.0001
G01 X1.493 Y2.458

G03 X1.563 Y2.458 I0.035 J-0.0004
G01 Z0.1 F20
G00 X1.362 Y2.458
G01 Z-0.002
G01 X1.363 Y2.458 F15
G01 X1.363 Y2.508
G01 X1.362 Y2.508

G03 X1.2932 Y2.508 I-0.0344 J0.0001
G01 X1.293 Y2.508
G01 X1.293 Y2.458

G03 X1.3622 Y2.458 I0.0346 J-0.0004
G01 X1.362 Y2.458
G01 Z0.1 F20
G00 X1.263 Y2.458
G01 Z-0.002
G01 X1.263 Y2.458 F15
G01 X1.263 Y2.508
G01 X1.263 Y2.508

G03 X1.1924 Y2.508 I-0.0353 J0.0001
G01 X1.193 Y2.508
G01 X1.193 Y2.458

G03 X1.2624 Y2.458 I0.0347 J-0.0004
G01 X1.263 Y2.458
G01 Z0.1 F20
G00 X1.163 Y2.458
G01 Z-0.002
G01 X1.163 Y2.458 F15
G01 X1.163 Y2.508
G01 X1.163 Y2.508

G03 X1.0924 Y2.508 I-0.0353 J0.0001
G01 X1.093 Y2.508
G01 X1.093 Y2.458

G03 X1.1624 Y2.458 I0.0347 J-0.0004
G01 X1.163 Y2.458
G01 Z0.1 F20
G00 X2.923 Y0.558
G01 Z-0.002
G01 X2.923 Y0.558 F15
G01 X2.923 Y0.608
G01 X2.923 Y0.608

G03 X2.853 Y0.608 I-0.035 J0
G01 X2.853 Y0.558

G03 X2.923 Y0.558 I0.035 J-0.0005
G01 Z0.1 F20
G00 X2.823 Y0.558
G01 Z-0.002
G01 X2.823 Y0.558 F15
G01 X2.823 Y0.608
G01 X2.823 Y0.608

G03 X2.753 Y0.608 I-0.035 J0
G01 X2.753 Y0.558

G03 X2.823 Y0.558 I0.035 J-0.0005
G01 Z0.1 F20
G00 X2.722 Y0.558
G01 Z-0.002
G01 X2.723 Y0.558 F15
G01 X2.723 Y0.608
G01 X2.722 Y0.608

G03 X2.6532 Y0.608 I-0.0344 J0
G01 X2.653 Y0.608
G01 X2.653 Y0.558

G03 X2.7222 Y0.558 I0.0346 J-0.0005
G01 X2.722 Y0.558
G01 Z0.1 F20
G00 X2.622 Y0.558
G01 Z-0.002
G01 X2.623 Y0.558 F15
G01 X2.623 Y0.608
G01 X2.622 Y0.608

G03 X2.5532 Y0.608 I-0.0344 J0
G01 X2.553 Y0.608
G01 X2.553 Y0.558

G03 X2.6222 Y0.558 I0.0346 J-0.0005
G01 X2.622 Y0.558
G01 Z0.1 F20
G00 X2.522 Y0.558
G01 Z-0.002
G01 X2.523 Y0.558 F15
G01 X2.523 Y0.608
G01 X2.522 Y0.608

G03 X2.4534 Y0.608 I-0.0343 J0
G01 X2.453 Y0.608
G01 X2.453 Y0.558

G03 X2.5224 Y0.558 I0.0347 J-0.0005
G01 X2.522 Y0.558
G01 Z0.1 F20
G00 X2.423 Y0.558
G01 Z-0.002
G01 X2.423 Y0.558 F15
G01 X2.423 Y0.608
G01 X2.423 Y0.608

G03 X2.3524 Y0.608 I-0.0353 J0
G01 X2.353 Y0.608
G01 X2.353 Y0.558

G03 X2.4224 Y0.558 I0.0347 J-0.0005
G01 X2.423 Y0.558
G01 Z0.1 F20
G00 X1.923 Y0.558
G01 Z-0.002
G01 X1.923 Y0.558 F15
G01 X1.923 Y0.608
G01 X1.923 Y0.608

G03 X1.853 Y0.608 I-0.035 J0
G01 X1.853 Y0.558

G03 X1.923 Y0.558 I0.035 J-0.0005
G01 Z0.1 F20
G00 X1.823 Y0.558
G01 Z-0.002
G01 X1.823 Y0.558 F15
G01 X1.823 Y0.608
G01 X1.823 Y0.608

G03 X1.753 Y0.608 I-0.035 J0
G01 X1.753 Y0.558

G03 X1.823 Y0.558 I0.035 J-0.0005
G01 Z0.1 F20
G00 X1.722 Y0.558
G01 Z-0.002
G01 X1.723 Y0.558 F15
G01 X1.723 Y0.608
G01 X1.722 Y0.608

G03 X1.6532 Y0.608 I-0.0344 J0
G01 X1.653 Y0.608
G01 X1.653 Y0.558

G03 X1.7222 Y0.558 I0.0346 J-0.0005
G01 X1.722 Y0.558
G01 Z0.1 F20
G00 X1.622 Y0.558
G01 Z-0.002
G01 X1.623 Y0.558 F15
G01 X1.623 Y0.608
G01 X1.622 Y0.608

G03 X1.5532 Y0.608 I-0.0344 J0
G01 X1.553 Y0.608
G01 X1.553 Y0.558

G03 X1.6222 Y0.558 I0.0346 J-0.0005
G01 X1.622 Y0.558
G01 Z0.1 F20
G00 X1.522 Y0.558
G01 Z-0.002
G01 X1.523 Y0.558 F15
G01 X1.523 Y0.608
G01 X1.522 Y0.608

G03 X1.4534 Y0.608 I-0.0343 J0
G01 X1.453 Y0.608
G01 X1.453 Y0.558

G03 X1.5224 Y0.558 I0.0347 J-0.0005
G01 X1.522 Y0.558
G01 Z0.1 F20
G00 X2.111 Y1.56
G01 Z-0.002
G01 X2.156 Y1.56 F15
G01 X2.156 Y1.563
G01 Z0.1 F20
G00 X2.156 Y1.602
G01 Z-0.002
G01 X2.156 Y1.605 F15
G01 X2.111 Y1.605
G01 X2.111 Y1.56
G01 Z0.1 F20
G00 X0.001 Y-0.009
G01 Z-0.002
G01 X4.21 Y-0.009 F15

G03 X4.2192 Y0 I0 J0.0092
G01 X4.219 Y0
G01 X4.219 Y3.151

G03 X4.21 Y3.16 I-0.009 J-0.0003
G01 X0.001 Y3.16

G03 X-0.0088 Y3.151 I-0.0005 J-0.0093
G01 X-0.009 Y3.151
G01 X-0.009 Y0

G03 X0.0011 Y-0.0093 I0.0095 J0.0002
G01 X0.001 Y-0.009
G01 Z0.1 F20
G00 X0.01 Y0.009
G01 Z-0.002
G01 X4.201 Y0.009 F15
G01 X4.201 Y3.142
G01 X0.01 Y3.142
G01 X0.01 Y0.009

G01 Z0.1 F20
G00 X2.153 Y0.611
G01 Z-0.002
G03 X2.1528 Y0.5548 I0.0348 J-0.0282 F15
G01 X2.153 Y0.555

G03 X2.184 Y0.5229 I0.0348 J0.0025
G01 X2.184 Y0.523

G01 Z0.1 F20
G00 X2.633 Y1.707
G01 Z-0.002
G03 X2.6155 Y1.6996 I0 J-0.0243 F15
G01 X2.615 Y1.7

G01 Z0.1 F20
G00 X2.458 Y1.233
G01 Z-0.002
G03 X2.4649 Y1.2159 I0.0246 J-0.0001 F15
G01 X2.465 Y1.216

G01 Z0.1 F20
G00 X2.528 Y2.578
G01 Z-0.002
G03 X2.538 Y2.5681 I0.0096 J-0.0003 F15
G01 X2.538 Y2.568

G01 Z0.1 F20
G00 X2.223 Y0.612
G01 Z-0.002
G03 X2.1525 Y0.6111 I-0.0352 J-0.004 F15
G01 X2.153 Y0.611

G01 Z0.1 F20
G00 X1.053 Y2.483
G01 Z-0.002
G03 X1.053 Y2.483 I-0.0651 J-0.0002 F15

G01 Z0.1 F20
G00 X3.053 Y1.883
G01 Z-0.002
G03 X3.053 Y1.883 I-0.0651 J-0.0004 F15

G01 Z0.1 F20
G00 X3.053 Y0.783
G01 Z-0.002
G03 X3.053 Y0.783 I-0.0651 J-0.0003 F15

G01 Z0.1 F20
G00 X1.003 Y0.583
G01 Z-0.002
G03 X1.003 Y0.583 I-0.0651 J-0.0002 F15

G01 Z0.1 F20
G00 X2.684 Y1.631
G01 Z-0.002
G03 X2.6932 Y1.5807 I-0.0111 J-0.028 F15
G01 X2.693 Y1.581
(... pad touchdown start ...)
G00 Z0.25
G00 X2.558 Y1.888
G01 Z-0.005 F20
G04 P0.25
G00 Z0.25
G00 X2.558 Y1.303
G01 Z-0.005
G04 P0.25
G00 Z0.25
G00 X2.888 Y2.483
G01 Z-0.005
G04 P0.25
G00 Z0.25
G00 X2.788 Y2.483
G01 Z-0.005
G04 P0.25
G00 Z0.25
G00 X2.688 Y2.483
G01 Z-0.005
G04 P0.25
G00 Z0.25
G00 X2.588 Y2.483
G01 Z-0.005
G04 P0.25
G00 Z0.25
G00 X2.488 Y2.483
G01 Z-0.005
G04 P0.25
G00 Z0.25
G00 X2.388 Y2.483
G01 Z-0.005
G04 P0.25
G00 Z0.25
G00 X2.288 Y2.483
G01 Z-0.005
G04 P0.25
G00 Z0.25
G00 X2.188 Y2.483
G01 Z-0.005
G04 P0.25
G00 Z0.25
G00 X2.028 Y2.483
G01 Z-0.005
G04 P0.25
G00 Z0.25
G00 X1.928 Y2.483
G01 Z-0.005
G04 P0.25
G00 Z0.25
G00 X1.828 Y2.483
G01 Z-0.005
G04 P0.25
G00 Z0.25
G00 X1.728 Y2.483
G01 Z-0.005
G04 P0.25
G00 Z0.25
G00 X1.628 Y2.483
G01 Z-0.005
G04 P0.25
G00 Z0.25
G00 X1.528 Y2.483
G01 Z-0.005
G04 P0.25
G00 Z0.25
G00 X1.428 Y2.483
G01 Z-0.005
G04 P0.25
G00 Z0.25
G00 X1.328 Y2.483
G01 Z-0.005
G04 P0.25
G00 Z0.25
G00 X1.228 Y2.483
G01 Z-0.005
G04 P0.25
G00 Z0.25
G00 X1.128 Y2.483
G01 Z-0.005
G04 P0.25
G00 Z0.25
G00 X2.888 Y0.583
G01 Z-0.005
G04 P0.25
G00 Z0.25
G00 X2.788 Y0.583
G01 Z-0.005
G04 P0.25
G00 Z0.25
G00 X2.688 Y0.583
G01 Z-0.005
G04 P0.25
G00 Z0.25
G00 X2.588 Y0.583
G01 Z-0.005
G04 P0.25
G00 Z0.25
G00 X2.488 Y0.583
G01 Z-0.005
G04 P0.25
G00 Z0.25
G00 X2.388 Y0.583
G01 Z-0.005
G04 P0.25
G00 Z0.25
G00 X2.188 Y0.583
G01 Z-0.005
G04 P0.25
G00 Z0.25
G00 X2.088 Y0.583
G01 Z-0.005
G04 P0.25
G00 Z0.25
G00 X1.988 Y0.583
G01 Z-0.005
G04 P0.25
G00 Z0.25
G00 X1.888 Y0.583
G01 Z-0.005
G04 P0.25
G00 Z0.25
G00 X1.788 Y0.583
G01 Z-0.005
G04 P0.25
G00 Z0.25
G00 X1.688 Y0.583
G01 Z-0.005
G04 P0.25
G00 Z0.25
G00 X1.588 Y0.583
G01 Z-0.005
G04 P0.25
G00 Z0.25
G00 X1.488 Y0.583
G01 Z-0.005
G04 P0.25
G00 Z0.25
G00 X0.988 Y2.483
G01 Z-0.005
G04 P0.25
G00 Z0.25
G00 X2.988 Y1.883
G01 Z-0.005
G04 P0.25
G00 Z0.25
G00 X2.988 Y0.783
G01 Z-0.005
G04 P0.25
G00 Z0.25
G00 X0.938 Y0.583
G01 Z-0.005
G04 P0.25
G00 Z0.25
G00 X3.838 Y0.732
G01 Z-0.005
G04 P0.25
G00 Z0.25
G00 X3.838 Y0.583
G01 Z-0.005
G04 P0.25
G00 Z0.25
G00 X3.838 Y2.233
G01 Z-0.005
G04 P0.25
G00 Z0.25
G00 X3.838 Y2.083
G01 Z-0.005
G04 P0.25
G00 Z0.25
G00 X3.838 Y1.633
G01 Z-0.005
G04 P0.25
G00 Z0.25
G00 X3.838 Y1.483
G01 Z-0.005
G04 P0.25
G00 Z0.25
G00 X2.373 Y1.603
G01 Z-0.005
G04 P0.25
G00 Z0.25
G00 X2.373 Y1.503
G01 Z-0.005
G04 P0.25
G00 Z0.25
G00 X2.373 Y1.403
G01 Z-0.005
G04 P0.25
G00 Z0.25
G00 X2.373 Y1.303
G01 Z-0.005
G04 P0.25
G00 Z0.25
G00 X2.673 Y1.303
G01 Z-0.005
G04 P0.25
G00 Z0.25
G00 X2.673 Y1.403
G01 Z-0.005
G04 P0.25
G00 Z0.25
G00 X2.673 Y1.503
G01 Z-0.005
G04 P0.25
G00 Z0.25
G00 X2.673 Y1.603
G01 Z-0.005
G04 P0.25
G00 Z0.25
G00 X3.308 Y0.556
G01 Z-0.005
G04 P0.25
G00 Z0.25
G00 X3.308 Y0.733
G01 Z-0.005
G04 P0.25
G00 Z0.25
G00 X3.643 Y0.733
G01 Z-0.005
G04 P0.25
G00 Z0.25
G00 X3.519 Y0.733
G01 Z-0.005
G04 P0.25
G00 Z0.25
G00 X2.74 Y1.608
G01 Z-0.005
G04 P0.25
G00 Z0.25
G00 X2.808 Y1.608
G01 Z-0.005
G04 P0.25
G00 Z0.25
G00 X2.258 Y1.515
G01 Z-0.005
G04 P0.25
G00 Z0.25
G00 X2.258 Y1.583
G01 Z-0.005
G04 P0.25
G00 Z0.25
G00 X2.258 Y1.34
G01 Z-0.005
G04 P0.25
G00 Z0.25
G00 X2.258 Y1.408
G01 Z-0.005
G04 P0.25
G00 Z0.25
G00 X2.808 Y1.415
G01 Z-0.005
G04 P0.25
G00 Z0.25
G00 X2.808 Y1.483
G01 Z-0.005
G04 P0.25
G00 Z0.25
G00 X2.808 Y1.24
G01 Z-0.005
G04 P0.25
G00 Z0.25
G00 X2.808 Y1.308
G01 Z-0.005
G04 P0.25
G00 Z0.25
G00 X2.133 Y1.583
G01 Z-0.005
G04 P0.25
G00 Z0.25
G00 X2.133 Y1.515
G01 Z-0.005
G04 P0.25
G00 Z0.25
G00 X2.933 Y1.483
G01 Z-0.005
G04 P0.25
G00 Z0.25
G00 X2.933 Y1.415
G01 Z-0.005
G04 P0.25
G00 Z0.25
G00 X3.308 Y0.335
G01 Z-0.005
G04 P0.25
G00 Z0.25
G00 X3.308 Y0.158
G01 Z-0.005
G04 P0.25
G00 Z0.25
G00 X2.483 Y2.69
G01 Z-0.005
G04 P0.25
G00 Z0.25
G00 X2.483 Y2.758
G01 Z-0.005
G04 P0.25
G00 Z0.25
G00 X2.183 Y2.683
G01 Z-0.005
G04 P0.25
G00 Z0.25
G00 X2.183 Y2.751
G01 Z-0.005
G04 P0.25
G00 Z0.25
G00 X2.483 Y2.833
G01 Z-0.005
G04 P0.25
G00 Z0.25
G00 X2.483 Y2.901
G01 Z-0.005
G04 P0.25
G00 Z0.25
G00 X2.183 Y2.833
G01 Z-0.005
G04 P0.25
G00 Z0.25
G00 X2.183 Y2.901
G01 Z-0.005
G04 P0.25
G00 Z0.25
(... pad touchdown end ...)
G00 Z0.25
G00 X0 Y0
M05 (Stop spindle)
M02 (Program End)

