(Generated By: Line Grinder Version: 01.04)
(Home Page: http://www.OfItselfSo.com/LineGrinder/LineGrinder.php)
(Generated from file: C:\Users\Huwok\Google Drive\IDP - Dispositif Lumineux\PCB\IDP\IDP - CADCAM Top Copper.TXT)
(Date Generated: Saturday, 19 April 2014 12:11)

(The Line Grinder software is released under the MIT License. There)
(is no warranty or guarantee that the GCode files it produces)
(are without error. You use it, and run its output code entirely)
(at your own risk. In particular: )

(THE LINE GRINDER SOFTWARE, AND THE OUTPUT CODE IT GENERATES, ARE )
(PROVIDED "AS IS", WITHOUT WARRANTY OF ANY KIND, EXPRESS OR )
(IMPLIED, INCLUDING BUT NOT LIMITED TO THE WARRANTIES OF )
(MERCHANTABILITY, FITNESS FOR A PARTICULAR PURPOSE AND )
(NONINFRINGEMENT. IN NO EVENT SHALL THE AUTHORS OR COPYRIGHT )
(HOLDERS BE LIABLE FOR ANY CLAIM, DAMAGES OR OTHER LIABILITY, )
(WHETHER IN AN ACTION OF CONTRACT, TORT OR OTHERWISE, ARISING )
(FROM, OUT OF OR IN CONNECTION WITH THE SOFTWARE OR ITS OUTPUT)
(OR FROM THE USE OR OTHER DEALINGS IN THE SOFTWARE. )

G20 (Use Inches)
G90 (Set Absolute Coordinates)
G17 (XY plane selection)
G00 Z0.25
G00 X0 Y0
M03 (Start spindle)
G04 P1 (Pause to let the spindle start)
G00 X3.668 Y0.687
G01 Z-0.01 F1
G01 X3.791 Y0.687 F4

G03 X3.9032 Y0.732 I0.047 J0.0452
G01 X3.903 Y0.732

G03 X3.7909 Y0.777 I-0.065 J0.0002
G01 X3.791 Y0.777
G01 X3.668 Y0.777
G01 X3.668 Y0.788
G01 X3.618 Y0.788
G01 X3.618 Y0.77

G03 X3.6182 Y0.6953 I0.0246 J-0.0373
G01 X3.618 Y0.695
G01 X3.618 Y0.678
G01 X3.668 Y0.678
G01 X3.668 Y0.687
G01 Z0.2 F1
G00 X3.354 Y0.688
G01 Z-0.01
G01 X3.494 Y0.688 F4
G01 X3.494 Y0.678
G01 X3.544 Y0.678
G01 X3.544 Y0.695

G03 X3.5642 Y0.733 I-0.025 J0.0377
G01 X3.564 Y0.733

G03 X3.544 Y0.7701 I-0.045 J-0.0003
G01 X3.544 Y0.77
G01 X3.544 Y0.788
G01 X3.494 Y0.788
G01 X3.494 Y0.778
G01 X3.354 Y0.778
G01 X3.354 Y0.779
G01 X3.297 Y0.779
G01 X3.15 Y0.926
G01 Z0.2 F1
G00 X3.353 Y0.381
G01 Z-0.01
G01 X3.353 Y0.509 F4
G01 X3.354 Y0.509
G01 X3.354 Y0.602
G01 X3.262 Y0.602
G01 X3.262 Y0.509
G01 X3.263 Y0.509
G01 X3.263 Y0.381
G01 X3.262 Y0.381
G01 X3.262 Y0.288
G01 X3.354 Y0.288
G01 X3.354 Y0.381
G01 X3.353 Y0.381
G01 Z0.2 F1
G00 X3.251 Y0.688
G01 Z-0.01
G01 X3.262 Y0.688 F4
G01 X3.262 Y0.686
G01 X3.354 Y0.686
G01 X3.354 Y0.688
G01 Z0.2 F1
G00 X3.152 Y0.589
G01 Z-0.01
G01 X3.251 Y0.688 F4
G01 Z0.2 F1
G00 X3.076 Y0.64
G01 Z-0.01
G01 X3.201 Y0.764 F4

G02 X3.228 Y0.777 I0.0317 J-0.0313
G01 Z0.2 F1
G00 X3.152 Y0.508
G01 Z-0.01
G01 X3.152 Y0.589 F4
G01 Z0.2 F1
G00 X3.063 Y0.526
G01 Z-0.01
G01 X3.063 Y0.608 F4

G02 X3.0762 Y0.6397 I0.0446 J0
G01 X3.076 Y0.64
G01 Z0.2 F1
G00 X3.065 Y0.401
G01 Z-0.01
G01 X3.139 Y0.476 F4

G03 X3.1521 Y0.508 I-0.0314 J0.0316
G01 X3.152 Y0.508
G01 Z0.2 F1
G00 X3.014 Y0.478
G01 Z-0.01
G01 X3.063 Y0.526 F4
G01 Z0.2 F1
G00 X2.338 Y0.388
G01 Z-0.01
G01 X3.033 Y0.388 F4

G03 X3.0647 Y0.4014 I-0.0002 J0.0448
G01 X3.065 Y0.401
G01 Z0.2 F1
G00 X2.356 Y0.478
G01 Z-0.01
G01 X3.014 Y0.478 F4
G01 Z0.2 F1
G00 X2.184 Y0.523
G01 Z-0.01
G01 X2.306 Y0.401 F4

G03 X2.338 Y0.3879 I0.0317 J0.0318
G01 X2.338 Y0.388
G01 Z0.2 F1
G00 X2.223 Y0.612
G01 Z-0.01
G01 X2.356 Y0.478 F4
G01 Z0.2 F1
G00 X2.503 Y2.539
G01 Z-0.01
G01 X2.503 Y2.667 F4
G01 X2.505 Y2.667
G01 X2.505 Y2.713
G01 X2.46 Y2.713
G01 X2.46 Y2.667
G01 X2.463 Y2.667
G01 X2.463 Y2.533

G03 X2.4526 Y2.508 I0.0247 J-0.0249
G01 X2.453 Y2.508
G01 X2.453 Y2.458

G03 X2.5224 Y2.458 I0.0347 J-0.0004
G01 X2.522 Y2.458
G01 X2.523 Y2.458
G01 X2.523 Y2.508
G01 X2.522 Y2.508

G03 X2.5029 Y2.5388 I-0.0343 J0.0001
G01 X2.503 Y2.539
G01 Z0.2 F1
G00 X2.503 Y2.781
G01 Z-0.01
G01 X2.503 Y2.81 F4
G01 X2.505 Y2.81
G01 X2.505 Y2.855
G01 X2.46 Y2.855
G01 X2.46 Y2.81
G01 X2.463 Y2.81
G01 X2.463 Y2.781
G01 X2.46 Y2.781
G01 X2.46 Y2.735
G01 X2.505 Y2.735
G01 X2.505 Y2.781
G01 X2.503 Y2.781
G01 Z0.2 F1
G00 X2.203 Y2.774
G01 Z-0.01
G01 X2.203 Y2.81 F4
G01 X2.205 Y2.81
G01 X2.205 Y2.855
G01 X2.161 Y2.855
G01 X2.161 Y2.81
G01 X2.163 Y2.81
G01 X2.163 Y2.774
G01 X2.161 Y2.774
G01 X2.161 Y2.728
G01 X2.205 Y2.728
G01 X2.205 Y2.774
G01 X2.203 Y2.774
G01 Z0.2 F1
G00 X2.203 Y2.539
G01 Z-0.01
G01 X2.203 Y2.66 F4
G01 X2.205 Y2.66
G01 X2.205 Y2.705
G01 X2.161 Y2.705
G01 X2.161 Y2.66
G01 X2.163 Y2.66
G01 X2.163 Y2.533

G03 X2.1527 Y2.508 I0.0248 J-0.0249
G01 X2.153 Y2.508
G01 X2.153 Y2.458

G03 X2.2226 Y2.458 I0.0348 J-0.0004
G01 X2.223 Y2.458
G01 X2.223 Y2.458
G01 X2.223 Y2.508
G01 X2.223 Y2.508

G03 X2.2034 Y2.5396 I-0.0352 J0.0001
G01 X2.203 Y2.539
G01 Z0.2 F1
G00 X2.702 Y1.657
G01 Z-0.01
G01 X2.702 Y1.658 F4
G01 Z0.2 F1
G00 X2.643 Y1.657
G01 Z-0.01
G01 X2.702 Y1.657 F4
G01 X2.802 Y1.657
G01 X2.825 Y1.634
G01 X2.825 Y1.625
G01 X2.712 Y1.625

G03 X2.7121 Y1.575 I-0.0371 J-0.0251
G01 X2.712 Y1.575
G01 X2.85 Y1.575
G01 X2.85 Y1.575

G03 X2.86 Y1.5771 I0.0001 J0.0249
G01 X2.86 Y1.577
G01 X2.873 Y1.577
G01 X2.873 Y1.59

G03 X2.8751 Y1.6 I-0.0229 J0.0099
G01 X2.875 Y1.6
G01 X2.875 Y1.6
G01 X2.875 Y1.645
G01 X2.875 Y1.645

G03 X2.8674 Y1.6633 I-0.0249 J0.0004
G01 X2.867 Y1.663
G01 X2.829 Y1.7

G03 X2.812 Y1.7068 I-0.0168 J-0.0173
G01 X2.812 Y1.707
G01 X2.702 Y1.707
G01 X2.633 Y1.707

G03 X2.6155 Y1.6996 I0 J-0.0243
G01 X2.615 Y1.7
G01 Z0.2 F1
G00 X2.508 Y1.523
G01 Z-0.01
G01 X2.643 Y1.657 F4
G01 Z0.2 F1
G00 X2.465 Y1.55
G01 Z-0.01
G01 X2.615 Y1.7 F4
G01 Z0.2 F1
G00 X2.508 Y1.243
G01 Z-0.01
G01 X2.508 Y1.523 F4
G01 Z0.2 F1
G00 X2.458 Y1.233
G01 Z-0.01
G01 X2.458 Y1.533 F4

G02 X2.465 Y1.55 I0.0246 J-0.0002
G01 Z0.2 F1
G00 X2.465 Y1.215
G01 Z-0.01
G01 X2.79 Y0.89 F4
G01 Z0.2 F1
G00 X2.508 Y1.243
G01 Z-0.01
G01 X2.818 Y0.933 F4
G01 X3.133 Y0.933

G02 X3.1506 Y0.9256 I-0.0002 J-0.0251
G01 X3.15 Y0.925
G01 Z0.2 F1
G00 X2.808 Y0.883
G01 Z-0.01
G01 X2.808 Y0.883 F4

G02 X2.7897 Y0.8907 I-0.0003 J0.0249
G01 X2.79 Y0.891
G01 Z0.2 F1
G00 X2.808 Y0.883
G01 Z-0.01
G01 X3.123 Y0.883 F4
G01 X3.228 Y0.778
G01 Z0.2 F1
G00 X2.2 Y1.575
G01 Z-0.01
G01 X2.2 Y1.575 F4
G01 Z0.2 F1
G00 X2.083 Y1.575
G01 Z-0.01
G01 X2.2 Y1.575 F4
G01 X2.33 Y1.575
G01 X2.33 Y1.555
G01 X2.42 Y1.555
G01 X2.42 Y1.575
G01 X2.45 Y1.575
G01 X2.45 Y1.575

G03 X2.4676 Y1.5825 I-0.0002 J0.0249
G01 X2.467 Y1.583
G01 Z0.2 F1
G00 X2.083 Y1.575
G01 Z-0.01
G01 X2.083 Y1.575 F4

G02 X2.073 Y1.577 I-0.0002 J0.0249
G01 X2.061 Y1.577
G01 X2.061 Y1.589

G02 X2.0611 Y1.611 I0.0218 J0.0109
G01 X2.061 Y1.611
G01 X2.061 Y1.623
G01 X2.073 Y1.623

G02 X2.083 Y1.625 I0.0098 J-0.0231
G01 X2.2 Y1.625
G01 X2.33 Y1.625
G01 X2.33 Y1.645
G01 X2.42 Y1.645
G01 X2.42 Y1.625
G01 X2.439 Y1.625
G01 X3.065 Y2.251
G01 Z0.2 F1
G00 X2.95 Y1.435
G01 Z-0.01
G01 X2.95 Y1.435 F4
G01 X2.95 Y1.432
G01 X2.95 Y1.432
G01 Z0.2 F1
G00 X2.9 Y1.432
G01 Z-0.01
G01 X2.9 Y1.435 F4

G02 X2.9023 Y1.4453 I0.0248 J-0.0001
G01 X2.903 Y1.445
G01 X2.903 Y1.455
G01 X2.91 Y1.455

G02 X2.9392 Y1.4553 I0.0148 J-0.0201
G01 X2.939 Y1.455
G01 X2.948 Y1.455
G01 X2.948 Y1.444

G02 X2.9497 Y1.435 I-0.0232 J-0.0091
G01 X2.95 Y1.435
G01 Z0.2 F1
G00 X2.95 Y1.4
G01 Z-0.01
G01 X2.95 Y1.4 F4
G01 X2.95 Y1.308
G01 X2.95 Y1.308

G02 X2.9481 Y1.2979 I-0.0252 J-0.0003
G01 X2.948 Y1.298
G01 X2.948 Y1.285
G01 X2.934 Y1.285

G02 X2.9151 Y1.2852 I-0.0092 J0.0227
G01 X2.915 Y1.285
G01 X2.903 Y1.285
G01 X2.903 Y1.297

G02 X2.9005 Y1.308 I0.0218 J0.0107
G01 X2.9 Y1.308
G01 X2.9 Y1.375
G01 X2.825 Y1.375
G01 X2.712 Y1.375

G02 X2.712 Y1.425 I-0.0371 J0.025
G01 X2.825 Y1.425
G01 X2.9 Y1.425
G01 X2.9 Y1.432
G01 Z0.2 F1
G00 X2.95 Y1.4
G01 Z-0.01
G01 X2.95 Y1.432 F4
G01 Z0.2 F1
G00 X2.225 Y1.529
G01 Z-0.01
G01 X2.225 Y1.529 F4
G01 X2.225 Y1.525
G01 X2.25 Y1.525
G01 X2.338 Y1.525

G02 X2.4198 Y1.5 I0.0371 J-0.025
G01 X2.42 Y1.5

G02 X2.3379 Y1.4749 I-0.0449 J0
G01 X2.338 Y1.475
G01 X2.25 Y1.475
G01 X2.225 Y1.475
G01 X2.225 Y1.425
G01 X2.225 Y1.425

G02 X2.223 Y1.415 I-0.0251 J-0.0002
G01 X2.223 Y1.402
G01 X2.21 Y1.402

G02 X2.19 Y1.4019 I-0.0101 J0.0228
G01 X2.19 Y1.402
G01 X2.178 Y1.402
G01 X2.178 Y1.414

G02 X2.1755 Y1.425 I0.0219 J0.0108
G01 X2.175 Y1.425
G01 X2.175 Y1.5
G01 X2.175 Y1.529

G02 X2.1776 Y1.5402 I0.0249 J0.0003
G01 X2.178 Y1.54
G01 X2.178 Y1.555
G01 X2.223 Y1.555
G01 X2.223 Y1.539

G02 X2.225 Y1.529 I-0.0231 J-0.0097
G01 Z0.2 F1
G00 X2.467 Y1.582
G01 Z-0.01
G01 X2.471 Y1.585 F4
G01 X3.093 Y2.208
G01 X3.333 Y2.208
G01 X3.333 Y2.208
G01 Z0.2 F1
G00 X3.083 Y2.258
G01 Z-0.01
G01 X3.333 Y2.258 F4
G01 X3.778 Y2.258

G02 X3.903 Y2.233 I0.06 J-0.0251

G02 X3.778 Y2.208 I-0.065 J-0.0001
G01 X3.333 Y2.208
G01 Z0.2 F1
G00 X2.591 Y1.275
G01 Z-0.01
G01 X2.638 Y1.275 F4

G03 X2.7196 Y1.3 I0.0369 J0.0251
G01 X2.72 Y1.3

G03 X2.6376 Y1.3253 I-0.0451 J0.0001
G01 X2.638 Y1.325
G01 X2.592 Y1.325

G03 X2.5912 Y1.2747 I-0.017 J-0.0249
G01 X2.591 Y1.275
G01 Z0.2 F1
G00 X2.37 Y2.069
G01 Z-0.01
G01 X2.546 Y1.894 F4

G03 X2.6046 Y1.9 I0.029 J0.0058
G01 X2.605 Y1.9

G03 X2.581 Y1.9292 I-0.03 J-0.0002
G01 X2.581 Y1.929
G01 X2.413 Y2.097
G01 X2.413 Y2.433

G03 X2.423 Y2.458 I-0.0253 J0.0246
G01 X2.423 Y2.458
G01 X2.423 Y2.508
G01 X2.423 Y2.508

G03 X2.3524 Y2.508 I-0.0353 J0.0001
G01 X2.353 Y2.508
G01 X2.353 Y2.458

G03 X2.3631 Y2.4331 I0.0347 J-0.0004
G01 X2.363 Y2.433
G01 X2.363 Y2.087

G03 X2.37 Y2.0699 I0.0247 J0.0001
G01 X2.37 Y2.07
G01 Z0.2 F1
G00 X2.25 Y1.475
G01 Z-0.01
G01 X2.25 Y1.475 F4
G01 Z0.2 F1
G00 X2.925 Y1.475
G01 Z-0.01
G01 X2.925 Y1.475 F4
G01 Z0.2 F1
G00 X2.712 Y1.475
G01 Z-0.01
G01 X2.925 Y1.475 F4
G01 X3.033 Y1.475
G01 X3.033 Y1.475
G01 Z0.2 F1
G00 X2.712 Y1.525
G01 Z-0.01
G01 X2.925 Y1.525 F4
G01 X3.033 Y1.525
G01 X3.375 Y1.525
G01 X3.501 Y1.65
G01 Z0.2 F1
G00 X2.825 Y1.375
G01 Z-0.01
G01 X2.825 Y1.375 F4
G01 Z0.2 F1
G00 X2.208 Y2.901
G01 Z-0.01
G01 X2.208 Y2.901 F4
G01 X2.208 Y2.95
G01 X2.458 Y2.95
G01 X2.458 Y2.901

G03 X2.4604 Y2.8902 I0.0246 J-0.0002
G01 X2.46 Y2.89
G01 X2.46 Y2.878
G01 X2.473 Y2.878

G03 X2.492 Y2.8779 I0.0096 J0.0228
G01 X2.492 Y2.878
G01 X2.505 Y2.878
G01 X2.505 Y2.891

G03 X2.5071 Y2.901 I-0.0224 J0.0098
G01 X2.507 Y2.901
G01 X2.508 Y2.901
G01 X2.508 Y2.975
G01 X2.507 Y2.975

G03 X2.483 Y2.9994 I-0.0244 J0
G01 X2.483 Y3
G01 X2.183 Y3
G01 X1.75 Y3

G03 X1.7319 Y2.9921 I0.0002 J-0.025
G01 X1.732 Y2.992
G01 Z0.2 F1
G00 X2.158 Y2.901
G01 Z-0.01
G01 X2.158 Y2.95 F4
G01 X1.76 Y2.95
G01 X1.453 Y2.643
G01 X1.453 Y2.532

G02 X1.4625 Y2.508 I-0.0254 J-0.0239
G01 X1.462 Y2.508
G01 X1.463 Y2.508
G01 X1.463 Y2.458
G01 X1.462 Y2.458

G02 X1.4523 Y2.4336 I-0.0344 J-0.0004
G01 X1.453 Y2.433
G01 X1.453 Y2.26

G02 X1.4576 Y2.244 I-0.0254 J-0.0159
G01 X1.457 Y2.244

G02 X1.4034 Y2.2607 I-0.0294 J0.0001
G01 X1.403 Y2.261
G01 X1.403 Y2.433

G02 X1.3928 Y2.458 I0.0246 J0.0246
G01 X1.393 Y2.458
G01 X1.393 Y2.508

G02 X1.4033 Y2.5327 I0.0346 J0.0001
G01 X1.403 Y2.533
G01 X1.403 Y2.653

G02 X1.41 Y2.6701 I0.0246 J-0.0001
G01 X1.41 Y2.67
G01 Z0.2 F1
G00 X1.41 Y2.671
G01 Z-0.01
G01 X1.732 Y2.993 F4
G01 Z0.2 F1
G00 X3.058 Y1.407
G01 Z-0.01
G01 X3.55 Y1.407 F4
G01 X3.55 Y1.407

G03 X3.5675 Y1.4145 I-0.0002 J0.0248
G01 X3.567 Y1.415
G01 Z0.2 F1
G00 X3.033 Y1.457
G01 Z-0.01
G01 X3.539 Y1.457 F4
G01 X3.584 Y1.501
G01 Z0.2 F1
G00 X3.567 Y1.414
G01 Z-0.01
G01 X3.611 Y1.458 F4
G01 X3.778 Y1.458

G03 X3.9031 Y1.483 I0.06 J0.0253
G01 X3.903 Y1.483

G03 X3.8981 Y1.5081 I-0.065 J0.0003
G01 X3.898 Y1.508
G01 X4.049 Y1.659
G01 Z0.2 F1
G00 X3.601 Y1.508
G01 Z-0.01
G01 X3.778 Y1.508 F4

G02 X3.8631 Y1.5432 I0.06 J-0.0247
G01 X3.863 Y1.543
G01 X4.007 Y1.687
G01 X4.007 Y1.879
G01 X3.863 Y2.023

G02 X3.903 Y2.083 I-0.025 J0.06

G02 X3.898 Y2.058 I-0.065 J0
G01 X4.049 Y1.907
G01 Z0.2 F1
G00 X2.95 Y1.215
G01 Z-0.01
G01 X2.979 Y1.215 F4
G01 X2.979 Y1.215

G03 X2.9966 Y1.2224 I-0.0002 J0.025
G01 X2.996 Y1.223
G01 Z0.2 F1
G00 X2.925 Y1.265
G01 Z-0.01
G01 X2.968 Y1.265 F4
G01 X3.008 Y1.305
G01 X3.008 Y1.432

G02 X3.0104 Y1.4423 I0.0248 J-0.0002
G01 X3.011 Y1.442
G01 X3.011 Y1.455
G01 X3.023 Y1.455

G02 X3.033 Y1.457 I0.0098 J-0.0232
G01 Z0.2 F1
G00 X2.996 Y1.222
G01 Z-0.01
G01 X3.051 Y1.276 F4
G01 Z0.2 F1
G00 X3.058 Y1.294
G01 Z-0.01
G01 X3.058 Y1.294 F4
G01 X3.058 Y1.407
G01 Z0.2 F1
G00 X3.354 Y0.113
G01 Z-0.01
G01 X3.6 Y0.113 F4

G03 X3.6319 Y0.1262 I0.0002 J0.0447
G01 X3.632 Y0.126
G01 X3.87 Y0.364

G03 X3.8829 Y0.395 I-0.032 J0.0315
G01 X3.883 Y0.395
G01 X3.883 Y0.536

G03 X3.9029 Y0.583 I-0.045 J0.0468
G01 X3.903 Y0.583

G03 X3.7929 Y0.5359 I-0.065 J-0.0002
G01 X3.793 Y0.536
G01 X3.793 Y0.414
G01 X3.582 Y0.203
G01 X3.354 Y0.203
G01 X3.354 Y0.204
G01 X3.262 Y0.204
G01 X3.262 Y0.111
G01 X3.354 Y0.111
G01 X3.354 Y0.113
G01 Z0.2 F1
G00 X1.904 Y2.334
G01 Z-0.01
G01 X1.903 Y2.433 F4

G02 X1.8929 Y2.458 I0.0248 J0.0246
G01 X1.893 Y2.458
G01 X1.893 Y2.508

G02 X1.9626 Y2.508 I0.0348 J0.0001
G01 X1.963 Y2.508
G01 X1.963 Y2.508
G01 X1.963 Y2.458
G01 X1.963 Y2.458

G02 X1.953 Y2.433 I-0.0352 J-0.0004
G01 X1.954 Y2.323

G02 X1.9434 Y2.3024 I-0.0251 J-0.0002
G01 X1.943 Y2.303
G01 X1.944 Y2.303
G01 X1.797 Y2.192
G01 X1.796 Y1.393
G01 X1.889 Y1.3
G01 X2.237 Y1.3
G01 X2.25 Y1.312
G01 X2.25 Y1.325

G02 X2.2511 Y1.332 I0.0251 J-0.0002
G01 X2.251 Y1.332
G01 Z0.2 F1
G00 X1.757 Y2.224
G01 Z-0.01
G01 X1.757 Y2.225 F4

G02 X1.7588 Y2.2262 I0.0144 J-0.0203
G01 X1.759 Y2.226
G01 X1.904 Y2.334
G01 Z0.2 F1
G00 X1.746 Y1.383
G01 Z-0.01
G01 X1.747 Y2.205 F4

G02 X1.7568 Y2.2242 I0.0244 J-0.0003
G01 X1.757 Y2.224
G01 Z0.2 F1
G00 X1.753 Y1.365
G01 Z-0.01
G01 X1.861 Y1.257 F4
G01 Z0.2 F1
G00 X1.878 Y1.25
G01 Z-0.01
G01 X1.878 Y1.25 F4

G02 X1.8605 Y1.2576 I0.0004 J0.0248
G01 X1.861 Y1.258
G01 Z0.2 F1
G00 X1.878 Y1.25
G01 Z-0.01
G01 X2.247 Y1.25 F4
G01 X2.247 Y1.25

G03 X2.2648 Y1.2572 I0.0004 J0.0248
G01 X2.265 Y1.257
G01 X2.265 Y1.257
G01 X2.293 Y1.284
G01 X2.292 Y1.284

G03 X2.2999 Y1.302 I-0.0169 J0.0181
G01 X2.3 Y1.302
G01 X2.3 Y1.302
G01 X2.3 Y1.322
G01 X2.303 Y1.33
G01 X2.358 Y1.358
G01 Z0.2 F1
G00 X2.253 Y1.335
G01 Z-0.01
G01 X2.258 Y1.353 F4

G02 X2.2582 Y1.354 I0.0247 J-0.0055
G01 X2.258 Y1.354
G01 Z0.2 F1
G00 X2.272 Y1.37
G01 Z-0.01
G01 X2.33 Y1.4 F4

G02 X2.4202 Y1.4 I0.0451 J0
G01 X2.42 Y1.4

G02 X2.3582 Y1.3584 I-0.0449 J0
G01 X2.358 Y1.358
G01 Z0.2 F1
G00 X1.905 Y1.431
G01 Z-0.01
G01 X2.058 Y1.431 F4
G01 X2.058 Y1.357

G03 X2.083 Y1.3323 I0.0248 J0.0001
G01 X2.083 Y1.332
G01 X2.083 Y1.332
G01 X2.2 Y1.332
G01 X2.2 Y1.332

G03 X2.21 Y1.3341 I-0.0001 J0.0251
G01 X2.21 Y1.334
G01 X2.223 Y1.334
G01 X2.223 Y1.348

G03 X2.2248 Y1.357 I-0.0231 J0.0091
G01 X2.225 Y1.357

G03 X2.223 Y1.367 I-0.0251 J0.0001
G01 X2.223 Y1.38
G01 X2.21 Y1.38

G03 X2.2 Y1.3822 I-0.0101 J-0.0229
G01 X2.2 Y1.382
G01 X2.108 Y1.382
G01 X2.108 Y1.457
G01 X2.108 Y1.532
G01 X2.108 Y1.532

G03 X2.1062 Y1.5411 I-0.0252 J-0.0002
G01 X2.106 Y1.541
G01 X2.106 Y1.555
G01 X2.092 Y1.555

G03 X2.0731 Y1.5548 I-0.0092 J-0.0232
G01 X2.073 Y1.555
G01 X2.061 Y1.555
G01 X2.061 Y1.542

G03 X2.0588 Y1.532 I0.0218 J-0.0102
G01 X2.058 Y1.532
G01 X2.058 Y1.481
G01 X1.906 Y1.481

G03 X1.9047 Y1.4314 I-0.0165 J-0.0244
G01 X1.905 Y1.431
G01 Z0.2 F1
G00 X2.108 Y1.457
G01 Z-0.01
G01 X2.108 Y1.457 F4
G01 Z0.2 F1
G00 X2.918 Y1.575
G01 Z-0.01
G01 X2.918 Y1.575 F4

G02 X2.908 Y1.577 I-0.0002 J0.0249
G01 X2.896 Y1.577
G01 X2.896 Y1.589

G02 X2.896 Y1.611 I0.0218 J0.0109
G01 X2.896 Y1.623
G01 X2.908 Y1.623

G02 X2.918 Y1.625 I0.0098 J-0.0231
G01 X2.975 Y1.625
G01 X3.054 Y1.625

G02 X3.1009 Y1.6 I0.0167 J-0.0251
G01 X3.1 Y1.6

G02 X3.0551 Y1.5751 I-0.0293 J-0.0001
G01 X3.055 Y1.575
G01 X2.975 Y1.575
G01 X2.918 Y1.575
G01 Z0.2 F1
G00 X2.975 Y1.575
G01 Z-0.01
G01 X2.975 Y1.575 F4
G01 Z0.2 F1
G00 X2.95 Y1.118
G01 Z-0.01
G01 X2.95 Y1.215 F4
G01 Z0.2 F1
G00 X2.9 Y1.119
G01 Z-0.01
G01 X2.9 Y1.24 F4

G02 X2.9027 Y1.2512 I0.0248 J0
G01 X2.903 Y1.251
G01 X2.903 Y1.263
G01 X2.915 Y1.263

G02 X2.925 Y1.265 I0.0098 J-0.023
G01 Z0.2 F1
G00 X3.033 Y1.475
G01 Z-0.01
G01 X3.386 Y1.475 F4
G01 X3.386 Y1.475

G03 X3.4035 Y1.4825 I-0.0003 J0.025
G01 X3.403 Y1.483
G01 Z0.2 F1
G00 X3.403 Y1.482
G01 Z-0.01
G01 X3.529 Y1.608 F4
G01 X3.778 Y1.608

G03 X3.9029 Y1.633 I0.06 J0.0247
G01 X3.903 Y1.633

G03 X3.7777 Y1.6571 I-0.065 J-0.0003
G01 X3.778 Y1.657
G01 X3.518 Y1.657

G03 X3.5012 Y1.6498 I0.0005 J-0.0243
G01 X3.501 Y1.65
G01 Z0.2 F1
G00 X2.023 Y0.558
G01 Z-0.01
G01 X2.053 Y0.558 F4

G03 X2.1228 Y0.558 I0.0349 J-0.0005
G01 X2.123 Y0.558
G01 X2.123 Y0.558
G01 X2.123 Y0.608
G01 X2.123 Y0.608

G03 X2.1132 Y0.6323 I-0.0351 J0
G01 X2.113 Y0.632
G01 X2.113 Y0.762
G01 X2.228 Y0.762

G03 X2.2736 Y0.787 I0.0158 J0.0252
G01 X2.274 Y0.787

G03 X2.2269 Y0.8122 I-0.0302 J0.0002
G01 X2.227 Y0.812
G01 X2.113 Y0.812
G01 X2.113 Y1.003
G01 X2.143 Y1.033
G01 X2.367 Y1.256

G03 X2.4199 Y1.3 I0.0081 J0.0441
G01 X2.42 Y1.3

G03 X2.3309 Y1.292 I-0.0449 J0.0001
G01 X2.331 Y1.292
G01 X2.108 Y1.068
G01 X2.07 Y1.031
G01 Z0.2 F1
G00 X2.023 Y0.608
G01 Z-0.01
G01 X2.053 Y0.608 F4
G01 Z0.2 F1
G00 X4.056 Y1.89
G01 Z-0.01
G01 X4.057 Y1.89 F4
G01 X4.057 Y1.677
G01 X4.056 Y1.677

G02 X4.0493 Y1.6597 I-0.0247 J-0.0003
G01 X4.049 Y1.66
G01 Z0.2 F1
G00 X2.063 Y0.787
G01 Z-0.01
G01 X2.063 Y1.013 F4

G02 X2.0699 Y1.0301 I0.0249 J-0.0001
G01 X2.07 Y1.03
G01 Z0.2 F1
G00 X2.063 Y0.633
G01 Z-0.01
G01 X2.063 Y0.787 F4
G01 Z0.2 F1
G00 X2.923 Y2.458
G01 Z-0.01
G01 X2.923 Y2.458 F4
G01 X2.923 Y2.508
G01 X2.923 Y2.508

G03 X2.853 Y2.508 I-0.035 J0.0001
G01 X2.853 Y2.458

G03 X2.923 Y2.458 I0.035 J-0.0004
G01 Z0.2 F1
G00 X2.823 Y2.458
G01 Z-0.01
G01 X2.823 Y2.458 F4
G01 X2.823 Y2.508
G01 X2.823 Y2.508

G03 X2.753 Y2.508 I-0.035 J0.0001
G01 X2.753 Y2.458

G03 X2.823 Y2.458 I0.035 J-0.0004
G01 Z0.2 F1
G00 X2.722 Y2.458
G01 Z-0.01
G01 X2.723 Y2.458 F4
G01 X2.723 Y2.508
G01 X2.722 Y2.508

G03 X2.6532 Y2.508 I-0.0344 J0.0001
G01 X2.653 Y2.508
G01 X2.653 Y2.458

G03 X2.7222 Y2.458 I0.0346 J-0.0004
G01 X2.722 Y2.458
G01 Z0.2 F1
G00 X2.622 Y2.458
G01 Z-0.01
G01 X2.623 Y2.458 F4
G01 X2.623 Y2.508
G01 X2.622 Y2.508

G03 X2.5532 Y2.508 I-0.0344 J0.0001
G01 X2.553 Y2.508
G01 X2.553 Y2.458

G03 X2.6222 Y2.458 I0.0346 J-0.0004
G01 X2.622 Y2.458
G01 Z0.2 F1
G00 X2.323 Y2.458
G01 Z-0.01
G01 X2.323 Y2.458 F4
G01 X2.323 Y2.508
G01 X2.323 Y2.508

G03 X2.2526 Y2.508 I-0.0352 J0.0001
G01 X2.253 Y2.508
G01 X2.253 Y2.458

G03 X2.3226 Y2.458 I0.0348 J-0.0004
G01 X2.323 Y2.458
G01 Z0.2 F1
G00 X2.063 Y2.458
G01 Z-0.01
G01 X2.063 Y2.458 F4
G01 X2.063 Y2.508
G01 X2.063 Y2.508

G03 X1.9926 Y2.508 I-0.0352 J0.0001
G01 X1.993 Y2.508
G01 X1.993 Y2.458

G03 X2.0626 Y2.458 I0.0348 J-0.0004
G01 X2.063 Y2.458
G01 Z0.2 F1
G00 X1.863 Y2.458
G01 Z-0.01
G01 X1.863 Y2.458 F4
G01 X1.863 Y2.508
G01 X1.863 Y2.508

G03 X1.7928 Y2.508 I-0.0351 J0.0001
G01 X1.793 Y2.508
G01 X1.793 Y2.458

G03 X1.8628 Y2.458 I0.0349 J-0.0004
G01 X1.863 Y2.458
G01 Z0.2 F1
G00 X1.763 Y2.458
G01 Z-0.01
G01 X1.763 Y2.458 F4
G01 X1.763 Y2.508
G01 X1.763 Y2.508

G03 X1.6928 Y2.508 I-0.0351 J0.0001
G01 X1.693 Y2.508
G01 X1.693 Y2.458

G03 X1.7628 Y2.458 I0.0349 J-0.0004
G01 X1.763 Y2.458
G01 Z0.2 F1
G00 X1.663 Y2.458
G01 Z-0.01
G01 X1.663 Y2.458 F4
G01 X1.663 Y2.508
G01 X1.663 Y2.508

G03 X1.593 Y2.508 I-0.035 J0.0001
G01 X1.593 Y2.458

G03 X1.663 Y2.458 I0.035 J-0.0004
G01 Z0.2 F1
G00 X1.563 Y2.458
G01 Z-0.01
G01 X1.563 Y2.458 F4
G01 X1.563 Y2.508
G01 X1.563 Y2.508

G03 X1.493 Y2.508 I-0.035 J0.0001
G01 X1.493 Y2.458

G03 X1.563 Y2.458 I0.035 J-0.0004
G01 Z0.2 F1
G00 X1.362 Y2.458
G01 Z-0.01
G01 X1.363 Y2.458 F4
G01 X1.363 Y2.508
G01 X1.362 Y2.508

G03 X1.2932 Y2.508 I-0.0344 J0.0001
G01 X1.293 Y2.508
G01 X1.293 Y2.458

G03 X1.3622 Y2.458 I0.0346 J-0.0004
G01 X1.362 Y2.458
G01 Z0.2 F1
G00 X1.263 Y2.458
G01 Z-0.01
G01 X1.263 Y2.458 F4
G01 X1.263 Y2.508
G01 X1.263 Y2.508

G03 X1.1924 Y2.508 I-0.0353 J0.0001
G01 X1.193 Y2.508
G01 X1.193 Y2.458

G03 X1.2624 Y2.458 I0.0347 J-0.0004
G01 X1.263 Y2.458
G01 Z0.2 F1
G00 X1.163 Y2.458
G01 Z-0.01
G01 X1.163 Y2.458 F4
G01 X1.163 Y2.508
G01 X1.163 Y2.508

G03 X1.0924 Y2.508 I-0.0353 J0.0001
G01 X1.093 Y2.508
G01 X1.093 Y2.458

G03 X1.1624 Y2.458 I0.0347 J-0.0004
G01 X1.163 Y2.458
G01 Z0.2 F1
G00 X2.923 Y0.558
G01 Z-0.01
G01 X2.923 Y0.558 F4
G01 X2.923 Y0.608
G01 X2.923 Y0.608

G03 X2.853 Y0.608 I-0.035 J0
G01 X2.853 Y0.558

G03 X2.923 Y0.558 I0.035 J-0.0005
G01 Z0.2 F1
G00 X2.823 Y0.558
G01 Z-0.01
G01 X2.823 Y0.558 F4
G01 X2.823 Y0.608
G01 X2.823 Y0.608

G03 X2.753 Y0.608 I-0.035 J0
G01 X2.753 Y0.558

G03 X2.823 Y0.558 I0.035 J-0.0005
G01 Z0.2 F1
G00 X2.722 Y0.558
G01 Z-0.01
G01 X2.723 Y0.558 F4
G01 X2.723 Y0.608
G01 X2.722 Y0.608

G03 X2.6532 Y0.608 I-0.0344 J0
G01 X2.653 Y0.608
G01 X2.653 Y0.558

G03 X2.7222 Y0.558 I0.0346 J-0.0005
G01 X2.722 Y0.558
G01 Z0.2 F1
G00 X2.622 Y0.558
G01 Z-0.01
G01 X2.623 Y0.558 F4
G01 X2.623 Y0.608
G01 X2.622 Y0.608

G03 X2.5532 Y0.608 I-0.0344 J0
G01 X2.553 Y0.608
G01 X2.553 Y0.558

G03 X2.6222 Y0.558 I0.0346 J-0.0005
G01 X2.622 Y0.558
G01 Z0.2 F1
G00 X2.522 Y0.558
G01 Z-0.01
G01 X2.523 Y0.558 F4
G01 X2.523 Y0.608
G01 X2.522 Y0.608

G03 X2.4534 Y0.608 I-0.0343 J0
G01 X2.453 Y0.608
G01 X2.453 Y0.558

G03 X2.5224 Y0.558 I0.0347 J-0.0005
G01 X2.522 Y0.558
G01 Z0.2 F1
G00 X2.423 Y0.558
G01 Z-0.01
G01 X2.423 Y0.558 F4
G01 X2.423 Y0.608
G01 X2.423 Y0.608

G03 X2.3524 Y0.608 I-0.0353 J0
G01 X2.353 Y0.608
G01 X2.353 Y0.558

G03 X2.4224 Y0.558 I0.0347 J-0.0005
G01 X2.423 Y0.558
G01 Z0.2 F1
G00 X2.023 Y0.608
G01 Z-0.01
G01 X2.023 Y0.608 F4
G01 X2.023 Y0.608

G03 X1.9528 Y0.608 I-0.0351 J0
G01 X1.953 Y0.608
G01 X1.953 Y0.558

G03 X2.0228 Y0.558 I0.0349 J-0.0005
G01 X2.023 Y0.558
G01 Z0.2 F1
G00 X1.923 Y0.558
G01 Z-0.01
G01 X1.923 Y0.558 F4
G01 X1.923 Y0.608
G01 X1.923 Y0.608

G03 X1.853 Y0.608 I-0.035 J0
G01 X1.853 Y0.558

G03 X1.923 Y0.558 I0.035 J-0.0005
G01 Z0.2 F1
G00 X1.823 Y0.558
G01 Z-0.01
G01 X1.823 Y0.558 F4
G01 X1.823 Y0.608
G01 X1.823 Y0.608

G03 X1.753 Y0.608 I-0.035 J0
G01 X1.753 Y0.558

G03 X1.823 Y0.558 I0.035 J-0.0005
G01 Z0.2 F1
G00 X1.722 Y0.558
G01 Z-0.01
G01 X1.723 Y0.558 F4
G01 X1.723 Y0.608
G01 X1.722 Y0.608

G03 X1.6532 Y0.608 I-0.0344 J0
G01 X1.653 Y0.608
G01 X1.653 Y0.558

G03 X1.7222 Y0.558 I0.0346 J-0.0005
G01 X1.722 Y0.558
G01 Z0.2 F1
G00 X1.622 Y0.558
G01 Z-0.01
G01 X1.623 Y0.558 F4
G01 X1.623 Y0.608
G01 X1.622 Y0.608

G03 X1.5532 Y0.608 I-0.0344 J0
G01 X1.553 Y0.608
G01 X1.553 Y0.558

G03 X1.6222 Y0.558 I0.0346 J-0.0005
G01 X1.622 Y0.558
G01 Z0.2 F1
G00 X1.522 Y0.558
G01 Z-0.01
G01 X1.523 Y0.558 F4
G01 X1.523 Y0.608
G01 X1.522 Y0.608

G03 X1.4534 Y0.608 I-0.0343 J0
G01 X1.453 Y0.608
G01 X1.453 Y0.558

G03 X1.5224 Y0.558 I0.0347 J-0.0005
G01 X1.522 Y0.558
G01 Z0.2 F1
G00 X2.161 Y2.878
G01 Z-0.01
G01 X2.173 Y2.878 F4

G03 X2.1921 Y2.8778 I0.0098 J0.0228
G01 X2.192 Y2.878
G01 X2.205 Y2.878
G01 X2.205 Y2.891

G03 X2.207 Y2.901 I-0.0222 J0.0098
G01 X2.208 Y2.901
G01 Z0.2 F1
G00 X2.161 Y2.878
G01 Z-0.01
G01 X2.161 Y2.89 F4

G02 X2.1584 Y2.901 I0.0218 J0.0108
G01 X2.158 Y2.901
G01 Z0.2 F1
G00 X0.001 Y-0.009
G01 Z-0.01
G01 X4.21 Y-0.009 F4

G03 X4.2192 Y0 I0 J0.0092
G01 X4.219 Y0
G01 X4.219 Y3.151

G03 X4.21 Y3.16 I-0.009 J-0.0003
G01 X0.001 Y3.16

G03 X-0.0088 Y3.151 I-0.0005 J-0.0093
G01 X-0.009 Y3.151
G01 X-0.009 Y0

G03 X0.0011 Y-0.0093 I0.0095 J0.0002
G01 X0.001 Y-0.009
G01 Z0.2 F1
G00 X0.01 Y0.009
G01 Z-0.01
G01 X4.201 Y0.009 F4
G01 X4.201 Y3.142
G01 X0.01 Y3.142
G01 X0.01 Y0.009

G01 Z0.2 F1
G00 X2.153 Y0.611
G01 Z-0.01
G03 X2.1528 Y0.5548 I0.0348 J-0.0282 F4
G01 X2.153 Y0.555

G03 X2.184 Y0.5229 I0.0348 J0.0025
G01 X2.184 Y0.523

G01 Z0.2 F1
G00 X2.458 Y1.233
G01 Z-0.01
G03 X2.4649 Y1.2159 I0.0246 J-0.0001 F4
G01 X2.465 Y1.216

G01 Z0.2 F1
G00 X3.083 Y2.258
G01 Z-0.01
G03 X3.0647 Y2.2503 I-0.0002 J-0.0251 F4
G01 X3.065 Y2.25

G01 Z0.2 F1
G00 X3.601 Y1.508
G01 Z-0.01
G03 X3.5835 Y1.5005 I0.0002 J-0.0247 F4
G01 X3.584 Y1.5

G01 Z0.2 F1
G00 X3.051 Y1.277
G01 Z-0.01
G03 X3.0577 Y1.294 I-0.0182 J0.017 F4
G01 X3.058 Y1.294

G01 Z0.2 F1
G00 X1.746 Y1.383
G01 Z-0.01
G03 X1.7528 Y1.3659 I0.0244 J-0.0001 F4
G01 X1.753 Y1.366

G01 Z0.2 F1
G00 X2.253 Y1.335
G01 Z-0.01
G03 X2.2525 Y1.3338 I0.0221 J-0.0102 F4
G01 X2.252 Y1.334

G03 X2.2517 Y1.3331 I0.0231 J-0.0092
G01 X2.252 Y1.333

G01 Z0.2 F1
G00 X2.272 Y1.37
G01 Z-0.01
G03 X2.2587 Y1.3541 I0.0107 J-0.0225 F4
G01 X2.259 Y1.354

G01 Z0.2 F1
G00 X4.056 Y1.89
G01 Z-0.01
G03 X4.049 Y1.907 I-0.0247 J-0.0003 F4

G01 Z0.2 F1
G00 X2.955 Y1.102
G01 Z-0.01
G03 X2.9504 Y1.1182 I-0.0302 J0.0002 F4
G01 X2.95 Y1.118

G01 Z0.2 F1
G00 X2.9 Y1.119
G01 Z-0.01
G03 X2.9548 Y1.102 I0.0248 J-0.0168 F4
G01 X2.955 Y1.102

G01 Z0.2 F1
G00 X2.223 Y0.612
G01 Z-0.01
G03 X2.1525 Y0.6111 I-0.0352 J-0.004 F4
G01 X2.153 Y0.611

G01 Z0.2 F1
G00 X2.063 Y0.633
G01 Z-0.01
G03 X2.0526 Y0.608 I0.0249 J-0.025 F4
G01 X2.053 Y0.608

G01 Z0.2 F1
G00 X1.053 Y2.483
G01 Z-0.01
G03 X1.053 Y2.483 I-0.0651 J-0.0002 F4

G01 Z0.2 F1
G00 X3.053 Y1.883
G01 Z-0.01
G03 X3.053 Y1.883 I-0.0651 J-0.0004 F4

G01 Z0.2 F1
G00 X3.053 Y0.783
G01 Z-0.01
G03 X3.053 Y0.783 I-0.0651 J-0.0003 F4

G01 Z0.2 F1
G00 X1.003 Y0.583
G01 Z-0.01
G03 X1.003 Y0.583 I-0.0651 J-0.0002 F4

G01 Z0.2 F1
G00 X2.712 Y1.525
G01 Z-0.01
G03 X2.712 Y1.475 I-0.0371 J-0.025 F4
(... pad touchdown start ...)
G00 Z0.25
G00 X2.575 Y1.3
G01 Z-0.005 F1
G04 P0.25
G00 Z0.25
G00 X2.575 Y1.9
G01 Z-0.005
G04 P0.25
G00 Z0.25
G00 X1.89 Y1.457
G01 Z-0.005
G04 P0.25
G00 Z0.25
G00 X3.071 Y1.6
G01 Z-0.005
G04 P0.25
G00 Z0.25
G00 X2.925 Y1.102
G01 Z-0.005
G04 P0.25
G00 Z0.25
G00 X1.428 Y2.244
G01 Z-0.005
G04 P0.25
G00 Z0.25
G00 X2.244 Y0.787
G01 Z-0.005
G04 P0.25
G00 Z0.25
G00 X2.888 Y2.483
G01 Z-0.005
G04 P0.25
G00 Z0.25
G00 X2.788 Y2.483
G01 Z-0.005
G04 P0.25
G00 Z0.25
G00 X2.688 Y2.483
G01 Z-0.005
G04 P0.25
G00 Z0.25
G00 X2.588 Y2.483
G01 Z-0.005
G04 P0.25
G00 Z0.25
G00 X2.488 Y2.483
G01 Z-0.005
G04 P0.25
G00 Z0.25
G00 X2.388 Y2.483
G01 Z-0.005
G04 P0.25
G00 Z0.25
G00 X2.288 Y2.483
G01 Z-0.005
G04 P0.25
G00 Z0.25
G00 X2.188 Y2.483
G01 Z-0.005
G04 P0.25
G00 Z0.25
G00 X2.028 Y2.483
G01 Z-0.005
G04 P0.25
G00 Z0.25
G00 X1.928 Y2.483
G01 Z-0.005
G04 P0.25
G00 Z0.25
G00 X1.828 Y2.483
G01 Z-0.005
G04 P0.25
G00 Z0.25
G00 X1.728 Y2.483
G01 Z-0.005
G04 P0.25
G00 Z0.25
G00 X1.628 Y2.483
G01 Z-0.005
G04 P0.25
G00 Z0.25
G00 X1.528 Y2.483
G01 Z-0.005
G04 P0.25
G00 Z0.25
G00 X1.428 Y2.483
G01 Z-0.005
G04 P0.25
G00 Z0.25
G00 X1.328 Y2.483
G01 Z-0.005
G04 P0.25
G00 Z0.25
G00 X1.228 Y2.483
G01 Z-0.005
G04 P0.25
G00 Z0.25
G00 X1.128 Y2.483
G01 Z-0.005
G04 P0.25
G00 Z0.25
G00 X2.888 Y0.583
G01 Z-0.005
G04 P0.25
G00 Z0.25
G00 X2.788 Y0.583
G01 Z-0.005
G04 P0.25
G00 Z0.25
G00 X2.688 Y0.583
G01 Z-0.005
G04 P0.25
G00 Z0.25
G00 X2.588 Y0.583
G01 Z-0.005
G04 P0.25
G00 Z0.25
G00 X2.488 Y0.583
G01 Z-0.005
G04 P0.25
G00 Z0.25
G00 X2.388 Y0.583
G01 Z-0.005
G04 P0.25
G00 Z0.25
G00 X2.188 Y0.583
G01 Z-0.005
G04 P0.25
G00 Z0.25
G00 X2.088 Y0.583
G01 Z-0.005
G04 P0.25
G00 Z0.25
G00 X1.988 Y0.583
G01 Z-0.005
G04 P0.25
G00 Z0.25
G00 X1.888 Y0.583
G01 Z-0.005
G04 P0.25
G00 Z0.25
G00 X1.788 Y0.583
G01 Z-0.005
G04 P0.25
G00 Z0.25
G00 X1.688 Y0.583
G01 Z-0.005
G04 P0.25
G00 Z0.25
G00 X1.588 Y0.583
G01 Z-0.005
G04 P0.25
G00 Z0.25
G00 X1.488 Y0.583
G01 Z-0.005
G04 P0.25
G00 Z0.25
G00 X0.988 Y2.483
G01 Z-0.005
G04 P0.25
G00 Z0.25
G00 X2.988 Y1.883
G01 Z-0.005
G04 P0.25
G00 Z0.25
G00 X2.988 Y0.783
G01 Z-0.005
G04 P0.25
G00 Z0.25
G00 X0.938 Y0.583
G01 Z-0.005
G04 P0.25
G00 Z0.25
G00 X3.838 Y0.732
G01 Z-0.005
G04 P0.25
G00 Z0.25
G00 X3.838 Y0.583
G01 Z-0.005
G04 P0.25
G00 Z0.25
G00 X3.838 Y2.233
G01 Z-0.005
G04 P0.25
G00 Z0.25
G00 X3.838 Y2.083
G01 Z-0.005
G04 P0.25
G00 Z0.25
G00 X3.838 Y1.633
G01 Z-0.005
G04 P0.25
G00 Z0.25
G00 X3.838 Y1.483
G01 Z-0.005
G04 P0.25
G00 Z0.25
G00 X2.375 Y1.6
G01 Z-0.005
G04 P0.25
G00 Z0.25
G00 X2.375 Y1.5
G01 Z-0.005
G04 P0.25
G00 Z0.25
G00 X2.375 Y1.4
G01 Z-0.005
G04 P0.25
G00 Z0.25
G00 X2.375 Y1.3
G01 Z-0.005
G04 P0.25
G00 Z0.25
G00 X2.675 Y1.3
G01 Z-0.005
G04 P0.25
G00 Z0.25
G00 X2.675 Y1.4
G01 Z-0.005
G04 P0.25
G00 Z0.25
G00 X2.675 Y1.5
G01 Z-0.005
G04 P0.25
G00 Z0.25
G00 X2.675 Y1.6
G01 Z-0.005
G04 P0.25
G00 Z0.25
G00 X3.308 Y0.556
G01 Z-0.005
G04 P0.25
G00 Z0.25
G00 X3.308 Y0.733
G01 Z-0.005
G04 P0.25
G00 Z0.25
G00 X3.643 Y0.733
G01 Z-0.005
G04 P0.25
G00 Z0.25
G00 X3.519 Y0.733
G01 Z-0.005
G04 P0.25
G00 Z0.25
G00 X2.85 Y1.6
G01 Z-0.005
G04 P0.25
G00 Z0.25
G00 X2.918 Y1.6
G01 Z-0.005
G04 P0.25
G00 Z0.25
G00 X2.2 Y1.532
G01 Z-0.005
G04 P0.25
G00 Z0.25
G00 X2.2 Y1.6
G01 Z-0.005
G04 P0.25
G00 Z0.25
G00 X2.2 Y1.357
G01 Z-0.005
G04 P0.25
G00 Z0.25
G00 X2.2 Y1.425
G01 Z-0.005
G04 P0.25
G00 Z0.25
G00 X2.925 Y1.432
G01 Z-0.005
G04 P0.25
G00 Z0.25
G00 X2.925 Y1.5
G01 Z-0.005
G04 P0.25
G00 Z0.25
G00 X2.925 Y1.24
G01 Z-0.005
G04 P0.25
G00 Z0.25
G00 X2.925 Y1.308
G01 Z-0.005
G04 P0.25
G00 Z0.25
G00 X2.083 Y1.6
G01 Z-0.005
G04 P0.25
G00 Z0.25
G00 X2.083 Y1.532
G01 Z-0.005
G04 P0.25
G00 Z0.25
G00 X3.033 Y1.5
G01 Z-0.005
G04 P0.25
G00 Z0.25
G00 X3.033 Y1.432
G01 Z-0.005
G04 P0.25
G00 Z0.25
G00 X3.308 Y0.335
G01 Z-0.005
G04 P0.25
G00 Z0.25
G00 X3.308 Y0.158
G01 Z-0.005
G04 P0.25
G00 Z0.25
G00 X2.483 Y2.69
G01 Z-0.005
G04 P0.25
G00 Z0.25
G00 X2.483 Y2.758
G01 Z-0.005
G04 P0.25
G00 Z0.25
G00 X2.183 Y2.683
G01 Z-0.005
G04 P0.25
G00 Z0.25
G00 X2.183 Y2.751
G01 Z-0.005
G04 P0.25
G00 Z0.25
G00 X2.483 Y2.833
G01 Z-0.005
G04 P0.25
G00 Z0.25
G00 X2.483 Y2.901
G01 Z-0.005
G04 P0.25
G00 Z0.25
G00 X2.183 Y2.833
G01 Z-0.005
G04 P0.25
G00 Z0.25
G00 X2.183 Y2.901
G01 Z-0.005
G04 P0.25
G00 Z0.25
(... pad touchdown end ...)
G00 Z0.25
G00 X0 Y0
M05 (Stop spindle)
M02 (Program End)

